pipeline/lookcam/data/bias_stats.cube
TITLE "stats neutralizer bias"
LUT_3D_SIZE 5
DOMAIN_MIN 0 0 0
DOMAIN_MAX 1 1 1
0.010438 0.008074 0.008537
0.308062 0.016508 0.015698
0.574095 0.000000 0.019386
0.799105 0.017063 0.006480
0.970034 0.000000 0.003273
0.038257 0.358311 0.032016
0.269879 0.281816 0.000000
0.606727 0.295358 0.000000
0.876398 0.303542 0.000000
1.000000 0.262896 0.000000
0.021957 0.646754 0.027066
0.327420 0.670144 0.036734
0.625376 0.660579 0.016966
0.933539 0.616120 0.000000
1.000000 0.580057 0.013989
0.026837 0.865466 0.027288
0.297364 0.870067 0.031591
0.586552 0.892501 0.033172
0.863321 0.891207 0.018122
1.000000 0.867684 0.011179
0.030599 1.000000 0.031523
0.291374 1.000000 0.032081
0.560912 1.000000 0.029959
0.819741 1.000000 0.021219
1.000000 1.000000 0.015185
0.000000 0.000000 0.001727
0.288925 0.014799 0.247827
0.586326 0.008658 0.255127
0.780689 0.000000 0.252266
0.945941 0.000000 0.272820
0.010280 0.337467 0.324433
0.222680 0.239945 0.263796
0.492864 0.203491 0.221794
0.831931 0.251626 0.247062
0.896424 0.239654 0.263124
0.024422 0.625143 0.320206
0.306607 0.641789 0.322369
0.654902 0.723462 0.372217
0.798195 0.520516 0.220817
1.000000 0.558116 0.251043
0.026303 0.854361 0.295252
0.284554 0.852614 0.293628
0.605944 0.927167 0.313245
0.873016 0.911009 0.284935
1.000000 0.866565 0.262020
0.025708 1.000000 0.285335
0.284975 1.000000 0.286519
0.550553 1.000000 0.283436
0.797497 1.000000 0.270386
1.000000 1.000000 0.264244
0.000000 0.000000 0.423336
0.205667 0.000000 0.467824
0.479768 0.000000 0.489935
0.742879 0.000000 0.498318
0.980382 0.000000 0.506665
0.000000 0.110662 0.526458
0.057831 0.085910 0.522306
0.392892 0.121900 0.512102
0.747202 0.204212 0.497885
0.982849 0.240513 0.511703
0.005642 0.619904 0.621635
0.351310 0.714331 0.684441
0.605694 0.636293 0.613374
0.778226 0.496957 0.505840
1.000000 0.526103 0.508336
0.012579 0.829859 0.550148
0.275526 0.839424 0.561739
0.553699 0.840349 0.552242
0.698260 0.750963 0.545727
1.000000 0.792582 0.469972
0.011147 1.000000 0.530486
0.268455 1.000000 0.535250
0.530433 1.000000 0.533146
0.766776 1.000000 0.517801
0.974887 1.000000 0.502524
0.000000 0.000000 0.698208
0.194417 0.000000 0.715470
0.456591 0.000000 0.735397
0.727728 0.000000 0.746199
0.986982 0.000000 0.750106
0.000000 0.142318 0.638704
0.172836 0.157176 0.697486
0.438656 0.186263 0.742761
0.726404 0.214572 0.751329
0.997146 0.237536 0.752412
0.000000 0.448197 0.646522
0.252970 0.508497 0.731599
0.474532 0.479555 0.719803
0.815296 0.526373 0.746687
1.000000 0.520507 0.756924
0.000000 0.767800 0.733602
0.239662 0.795186 0.770560
0.520909 0.814585 0.834878
0.799756 0.885189 0.911490
1.000000 0.783478 0.792227
0.000000 1.000000 0.750182
0.241085 1.000000 0.763258
0.509883 1.000000 0.785146
0.788553 1.000000 0.809684
0.922787 0.937409 0.791332
0.000000 0.000000 0.942412
0.202633 0.000000 0.956720
0.462229 0.000000 0.978374
0.728979 0.000000 0.992261
0.988083 0.000000 0.997002
0.000000 0.166194 0.912058
0.195256 0.182333 0.935667
0.459339 0.207918 0.971239
0.734957 0.229843 0.991291
0.997489 0.240546 0.997205
0.000000 0.415498 0.868311
0.162960 0.440535 0.886322
0.443538 0.469875 0.939419
0.759726 0.514583 0.986863
1.000000 0.517655 0.993122
0.000000 0.724156 0.927282
0.169311 0.721520 0.906043
0.411280 0.698717 0.847101
0.758484 0.772844 0.906886
1.000000 0.771131 0.933192
0.000000 1.000000 0.973195
0.216317 1.000000 0.983927
0.464599 1.000000 1.000000
0.753193 1.000000 0.905233
0.981984 0.991542 0.855154
