pipeline/lookcam/data/bias_stats.cube
TITLE "stats neutralizer bias"
LUT_3D_SIZE 33
DOMAIN_MIN 0 0 0
DOMAIN_MAX 1 1 1
0.010438 0.008074 0.008537
0.050359 0.010418 0.009435
0.090280 0.012762 0.010334
0.119121 0.012800 0.012554
0.147962 0.012837 0.014775
0.184612 0.010435 0.011289
0.221263 0.008032 0.007803
0.264663 0.012270 0.011750
0.308062 0.016508 0.015698
0.213599 0.008254 0.007849
0.119137 0.000000 0.000000
0.196368 0.000000 0.000000
0.273599 0.000000 0.000000
0.334657 0.000000 0.002961
0.395716 0.000000 0.005922
0.484905 0.000000 0.012654
0.574095 0.000000 0.019386
0.600780 0.000000 0.009693
0.627465 0.000000 0.000000
0.693855 0.024208 0.018860
0.760246 0.048417 0.037720
0.801393 0.039860 0.025907
0.842540 0.031304 0.014094
0.820822 0.024183 0.010287
0.799105 0.017063 0.006480
0.803901 0.008532 0.003240
0.808698 0.000000 0.000000
0.831639 0.000000 0.000000
0.854581 0.000000 0.000000
0.882429 0.000000 0.000109
0.910277 0.000000 0.000218
0.940155 0.000000 0.001746
0.970034 0.000000 0.003273
0.005219 0.037915 0.010452
0.033289 0.039426 0.008278
0.061359 0.040937 0.006103
0.098319 0.044121 0.010755
0.135280 0.047305 0.015406
0.181592 0.047618 0.014819
0.227904 0.047932 0.014233
0.262462 0.049558 0.014157
0.297020 0.051183 0.014081
0.245579 0.034831 0.007040
0.194139 0.018479 0.000000
0.211543 0.010989 0.000000
0.228947 0.003499 0.000000
0.265728 0.001749 0.001480
0.302510 0.000000 0.002961
0.383023 0.008851 0.006327
0.463537 0.017702 0.009693
0.527869 0.022428 0.004846
0.592201 0.027154 0.000000
0.682506 0.049625 0.017344
0.772812 0.072096 0.034687
0.821234 0.069547 0.026205
0.869656 0.066999 0.017723
0.838457 0.062164 0.011993
0.807258 0.057330 0.006263
0.808177 0.043084 0.003131
0.809097 0.028838 0.000000
0.833921 0.027191 0.000000
0.858746 0.025543 0.000000
0.886328 0.026601 0.000054
0.913911 0.027658 0.000109
0.943477 0.028255 0.000976
0.973043 0.028853 0.001844
0.000000 0.067757 0.012368
0.016219 0.068434 0.007120
0.032437 0.069111 0.001873
0.077518 0.075441 0.008955
0.122598 0.081772 0.016038
0.178572 0.084802 0.018350
0.234545 0.087831 0.020662
0.260262 0.086845 0.016563
0.285979 0.085858 0.012464
0.277560 0.061408 0.006232
0.269140 0.036958 0.000000
0.226717 0.021978 0.000000
0.184294 0.006997 0.000000
0.196799 0.003499 0.000000
0.209304 0.000000 0.000000
0.281141 0.017702 0.000000
0.352978 0.035404 0.000000
0.454958 0.044856 0.000000
0.556937 0.054308 0.000000
0.671158 0.075042 0.015827
0.785378 0.095775 0.031655
0.841075 0.099234 0.026503
0.896771 0.102693 0.021351
0.856091 0.100145 0.013698
0.815411 0.097596 0.006045
0.812453 0.077636 0.003023
0.809495 0.057676 0.000000
0.836203 0.054381 0.000000
0.862910 0.051087 0.000000
0.890228 0.053201 0.000000
0.917545 0.055316 0.000000
0.946799 0.056510 0.000207
0.976052 0.057705 0.000415
0.027341 0.143892 0.011898
0.054242 0.139688 0.017968
0.081142 0.135485 0.024038
0.110330 0.121833 0.016028
0.139517 0.108180 0.008019
0.160749 0.096863 0.009175
0.181981 0.085545 0.010331
0.235232 0.099000 0.011542
0.288484 0.112456 0.012753
0.314323 0.100417 0.008149
0.340161 0.088378 0.003546
0.338043 0.091379 0.007755
0.335924 0.094380 0.011964
0.372003 0.100501 0.016602
0.408082 0.106622 0.021240
0.430424 0.099845 0.010725
0.452766 0.093068 0.000211
0.518635 0.091481 0.000106
0.584503 0.089894 0.000000
0.665072 0.100097 0.007914
0.745641 0.110300 0.015827
0.804270 0.117534 0.017161
0.862900 0.124768 0.018494
0.835045 0.119505 0.010758
0.807190 0.114243 0.003023
0.815528 0.100613 0.001511
0.823866 0.086983 0.000000
0.851560 0.084310 0.000000
0.879255 0.081637 0.000000
0.903288 0.083770 0.000000
0.927321 0.085903 0.000000
0.955297 0.087418 0.000104
0.983273 0.088933 0.000207
0.054683 0.220027 0.011427
0.092265 0.210943 0.028815
0.129847 0.201859 0.046202
0.143141 0.168224 0.023101
0.156436 0.134589 0.000000
0.142926 0.108924 0.000000
0.129417 0.083258 0.000000
0.210202 0.111156 0.006521
0.290988 0.139054 0.013042
0.351085 0.139426 0.010067
0.411183 0.139797 0.007092
0.449368 0.160780 0.015509
0.487554 0.181763 0.023927
0.547207 0.197503 0.033203
0.606860 0.213244 0.042479
0.579707 0.181988 0.021451
0.552555 0.150731 0.000422
0.582312 0.138106 0.000211
0.612069 0.125480 0.000000
0.658986 0.125152 0.000000
0.705903 0.124825 0.000000
0.767466 0.135833 0.007818
0.829028 0.146842 0.015637
0.813999 0.138865 0.007818
0.798970 0.130889 0.000000
0.818604 0.123590 0.000000
0.838237 0.116291 0.000000
0.866918 0.114239 0.000000
0.895599 0.112187 0.000000
0.916348 0.114339 0.000000
0.937097 0.116490 0.000000
0.963796 0.118325 0.000000
0.990494 0.120160 0.000000
0.030674 0.247051 0.011579
0.053003 0.213724 0.017340
0.075333 0.180398 0.023101
0.103406 0.158651 0.011551
0.131480 0.136905 0.000000
0.150623 0.139695 0.000000
0.169765 0.142484 0.000000
0.227187 0.155671 0.003260
0.284608 0.168858 0.006521
0.344773 0.168275 0.005033
0.404937 0.167691 0.003546
0.424122 0.176157 0.007755
0.443307 0.184622 0.011964
0.512915 0.205792 0.016602
0.582523 0.226961 0.021240
0.588673 0.210560 0.010725
0.594823 0.194158 0.000211
0.620782 0.182244 0.000106
0.646740 0.170329 0.000000
0.679979 0.170804 0.000000
0.713218 0.171279 0.000000
0.762700 0.177644 0.003960
0.812182 0.184008 0.007919
0.813787 0.176669 0.003960
0.815392 0.169329 0.000000
0.837141 0.162166 0.000000
0.858889 0.155004 0.000000
0.884827 0.152019 0.000000
0.910764 0.149034 0.000000
0.930499 0.150190 0.000000
0.950234 0.151345 0.000000
0.972740 0.152760 0.000000
0.995247 0.154175 0.000000
0.006666 0.274075 0.011731
0.013742 0.216506 0.005866
0.020818 0.158937 0.000000
0.063671 0.149079 0.000000
0.106524 0.139221 0.000000
0.158319 0.170466 0.000000
0.210114 0.201710 0.000000
0.244171 0.200187 0.000000
0.278229 0.198663 0.000000
0.338460 0.197124 0.000000
0.398691 0.195585 0.000000
0.398876 0.191533 0.000000
0.399060 0.187481 0.000000
0.478624 0.214080 0.000000
0.558187 0.240678 0.000000
0.597639 0.239132 0.000000
0.637091 0.237585 0.000000
0.659251 0.226382 0.000000
0.681412 0.215179 0.000000
0.700973 0.216456 0.000000
0.720533 0.217733 0.000000
0.757935 0.219454 0.000101
0.795337 0.221175 0.000202
0.813576 0.214472 0.000101
0.831814 0.207770 0.000000
0.855678 0.200743 0.000000
0.879541 0.193716 0.000000
0.902735 0.189799 0.000000
0.925929 0.185882 0.000000
0.944650 0.186041 0.000000
0.963370 0.186200 0.000000
0.981685 0.187195 0.000000
1.000000 0.188189 0.000000
0.022461 0.316193 0.021873
0.046717 0.293561 0.019599
0.070973 0.270930 0.017324
0.099646 0.241840 0.010175
0.128318 0.212750 0.003027
0.167205 0.217921 0.001513
0.206093 0.223092 0.000000
0.240073 0.231666 0.000000
0.274054 0.240239 0.000000
0.323418 0.241259 0.000000
0.372782 0.242279 0.000000
0.399565 0.238823 0.000000
0.426348 0.235367 0.000000
0.490830 0.260239 0.000000
0.555313 0.285111 0.000000
0.588611 0.275791 0.000000
0.621909 0.266472 0.000000
0.661432 0.273394 0.002979
0.700955 0.280317 0.005959
0.718798 0.278611 0.007395
0.736642 0.276905 0.008831
0.775383 0.275088 0.006331
0.814125 0.273270 0.003831
0.834116 0.264463 0.001916
0.854106 0.255656 0.000000
0.875508 0.246860 0.000000
0.896910 0.238064 0.000000
0.918580 0.232570 0.000000
0.940251 0.227075 0.000000
0.959399 0.225849 0.000000
0.978547 0.224624 0.000000
0.989274 0.225083 0.000000
1.000000 0.225543 0.000000
0.038257 0.358311 0.032016
0.079692 0.370617 0.033332
0.121128 0.382923 0.034648
0.135620 0.334601 0.020351
0.150113 0.286279 0.006053
0.176092 0.265376 0.003027
0.202071 0.244474 0.000000
0.235975 0.263145 0.000000
0.269879 0.281816 0.000000
0.308376 0.285395 0.000000
0.346873 0.288974 0.000000
0.400254 0.286113 0.000000
0.453635 0.283253 0.000000
0.503037 0.306399 0.000000
0.552439 0.329544 0.000000
0.579583 0.312451 0.000000
0.606727 0.295358 0.000000
0.663612 0.320406 0.005959
0.720497 0.345454 0.011918
0.736624 0.340766 0.014789
0.752750 0.336078 0.017661
0.792832 0.330722 0.012561
0.832913 0.325366 0.007460
0.854656 0.314454 0.003730
0.876398 0.303542 0.000000
0.895338 0.292977 0.000000
0.914278 0.282412 0.000000
0.934425 0.275340 0.000000
0.954572 0.268268 0.000000
0.974148 0.265658 0.000000
0.993724 0.263048 0.000000
0.996862 0.262972 0.000000
1.000000 0.262896 0.000000
0.043070 0.399456 0.042342
0.079827 0.405173 0.039365
0.116585 0.410890 0.036388
0.143644 0.391618 0.027112
0.170703 0.372345 0.017837
0.195797 0.348439 0.011473
0.220890 0.324533 0.005109
0.245712 0.306635 0.002554
0.270533 0.288736 0.000000
0.314829 0.313412 0.001674
0.359125 0.338087 0.003347
0.399129 0.333501 0.001674
0.439133 0.328914 0.000000
0.485658 0.340800 0.000000
0.532183 0.352686 0.000000
0.583532 0.351496 0.000000
0.634882 0.350305 0.000000
0.679726 0.368939 0.004937
0.724570 0.387573 0.009874
0.738355 0.377905 0.010629
0.752140 0.368237 0.011384
0.799610 0.366039 0.010265
0.847079 0.363842 0.009146
0.875260 0.361543 0.006695
0.903441 0.359243 0.004244
0.917371 0.344220 0.002122
0.931302 0.329197 0.000000
0.948536 0.320343 0.000000
0.965771 0.311490 0.000000
0.981317 0.307868 0.000000
0.996862 0.304246 0.000000
0.998431 0.303521 0.000000
1.000000 0.302797 0.000000
0.047882 0.440600 0.052668
0.079962 0.439729 0.045398
0.112042 0.438857 0.038127
0.151668 0.448635 0.033874
0.191294 0.458412 0.029620
0.215502 0.431503 0.019919
0.239709 0.404593 0.010218
0.255448 0.350125 0.005109
0.271188 0.295657 0.000000
0.321283 0.341429 0.003347
0.371377 0.387201 0.006694
0.398004 0.380888 0.003347
0.424630 0.374575 0.000000
0.468278 0.375201 0.000000
0.511926 0.375828 0.000000
0.587482 0.390540 0.000000
0.663037 0.405252 0.000000
0.695840 0.417472 0.003916
0.728643 0.429692 0.007831
0.740086 0.415044 0.006469
0.751530 0.400395 0.005108
0.806388 0.401357 0.007969
0.861245 0.402319 0.010831
0.895865 0.408631 0.009660
0.930484 0.414944 0.008488
0.939405 0.395463 0.004244
0.948325 0.375982 0.000000
0.962648 0.365346 0.000000
0.976970 0.354711 0.000000
0.988485 0.350078 0.000000
1.000000 0.345444 0.000000
1.000000 0.344071 0.000000
1.000000 0.342697 0.000000
0.058623 0.496211 0.075317
0.085551 0.486373 0.059700
0.112479 0.476534 0.044083
0.150558 0.482392 0.037597
0.188638 0.488249 0.031110
0.219398 0.481124 0.024105
0.250159 0.473999 0.017100
0.266086 0.423221 0.008550
0.282013 0.372443 0.000000
0.321320 0.376177 0.001674
0.360628 0.379910 0.003347
0.396058 0.388254 0.001674
0.431489 0.396597 0.000000
0.476507 0.409822 0.000000
0.521526 0.423046 0.000000
0.586054 0.433217 0.000000
0.650583 0.443387 0.000000
0.690722 0.453476 0.001958
0.730861 0.463565 0.003916
0.756512 0.457110 0.003235
0.782162 0.450654 0.002554
0.842972 0.458582 0.004127
0.903782 0.466509 0.005701
0.933084 0.466094 0.004973
0.962386 0.465679 0.004244
0.962167 0.442359 0.002122
0.961949 0.419039 0.000000
0.973224 0.407511 0.000000
0.984498 0.395983 0.000000
0.992249 0.391150 0.000505
1.000000 0.386317 0.001010
1.000000 0.384743 0.001175
1.000000 0.383170 0.001339
0.069364 0.551821 0.097967
0.091140 0.533017 0.074002
0.112915 0.514212 0.050038
0.149448 0.516148 0.041319
0.185982 0.518085 0.032601
0.223295 0.530745 0.028291
0.260609 0.543405 0.023981
0.276723 0.496317 0.011991
0.292837 0.449230 0.000000
0.321358 0.410924 0.000000
0.349879 0.372619 0.000000
0.394113 0.395619 0.000000
0.438347 0.418620 0.000000
0.484736 0.444442 0.000000
0.531125 0.470265 0.000000
0.584627 0.475893 0.000000
0.638129 0.481522 0.000000
0.685604 0.489480 0.000000
0.733079 0.497438 0.000000
0.772937 0.499176 0.000000
0.812795 0.500914 0.000000
0.879557 0.515806 0.000285
0.946319 0.530699 0.000570
0.970303 0.523557 0.000285
0.994287 0.516414 0.000000
0.984930 0.489255 0.000000
0.975573 0.462097 0.000000
0.983800 0.449676 0.000000
0.992026 0.437254 0.000000
0.996013 0.432222 0.001010
1.000000 0.427189 0.002020
1.000000 0.425416 0.002349
1.000000 0.423643 0.002678
0.058718 0.578377 0.083990
0.083241 0.563464 0.065374
0.107764 0.548550 0.046759
0.144333 0.549455 0.039999
0.180903 0.550359 0.033239
0.221592 0.563676 0.031737
0.262282 0.576993 0.030235
0.291936 0.559728 0.026454
0.321591 0.542462 0.022674
0.338986 0.491029 0.011337
0.356381 0.439596 0.000000
0.392650 0.437736 0.000000
0.428919 0.435876 0.000000
0.475381 0.455851 0.000000
0.521842 0.475826 0.000000
0.575368 0.495119 0.000000
0.628895 0.514412 0.000000
0.674343 0.520478 0.000000
0.719792 0.526544 0.000000
0.757241 0.524568 0.000000
0.794689 0.522591 0.000000
0.854289 0.532119 0.000143
0.913888 0.541646 0.000285
0.936220 0.535343 0.000143
0.958552 0.529040 0.000000
0.962981 0.511394 0.000000
0.967409 0.493748 0.000000
0.979880 0.483213 0.002487
0.992351 0.472677 0.004974
0.996175 0.469191 0.005689
1.000000 0.465705 0.006404
1.000000 0.464529 0.006140
1.000000 0.463352 0.005876
0.048071 0.604933 0.070012
0.075342 0.593911 0.056746
0.102612 0.582889 0.043479
0.139218 0.582761 0.038678
0.175825 0.582634 0.033877
0.219889 0.596608 0.035182
0.263954 0.610582 0.036488
0.307149 0.623138 0.040918
0.350345 0.635695 0.045348
0.356614 0.571134 0.022674
0.362884 0.506574 0.000000
0.391187 0.479853 0.000000
0.419490 0.453132 0.000000
0.466025 0.467259 0.000000
0.512560 0.481387 0.000000
0.566110 0.514345 0.000000
0.619661 0.547302 0.000000
0.663083 0.551476 0.000000
0.706505 0.555649 0.000000
0.741545 0.549959 0.000000
0.776584 0.544269 0.000000
0.829021 0.548431 0.000000
0.881458 0.552593 0.000000
0.902137 0.547129 0.000000
0.922816 0.541666 0.000000
0.941031 0.533533 0.000000
0.959245 0.525400 0.000000
0.975960 0.516750 0.004974
0.992675 0.508101 0.009947
0.996338 0.506160 0.010367
1.000000 0.504220 0.010787
1.000000 0.503641 0.009930
1.000000 0.503062 0.009074
0.035014 0.625844 0.048539
0.065396 0.620108 0.041316
0.095778 0.614372 0.034092
0.132964 0.613934 0.032647
0.170151 0.613495 0.031201
0.212282 0.623043 0.032819
0.254412 0.632591 0.034438
0.296647 0.642755 0.037739
0.338883 0.652919 0.041041
0.365295 0.627945 0.032188
0.391708 0.602970 0.023336
0.424657 0.589770 0.018750
0.457606 0.576569 0.014165
0.499345 0.582807 0.015028
0.541084 0.589045 0.015892
0.581801 0.596493 0.012187
0.622519 0.603940 0.008483
0.662057 0.601505 0.004663
0.701596 0.599070 0.000842
0.736676 0.593039 0.000421
0.771756 0.587009 0.000000
0.820580 0.588957 0.000000
0.869404 0.590905 0.000000
0.898791 0.584899 0.000000
0.928177 0.578893 0.000000
0.947202 0.570125 0.000000
0.966227 0.561357 0.000000
0.977184 0.545959 0.011203
0.988141 0.530561 0.022405
0.994070 0.534531 0.019424
1.000000 0.538501 0.016442
1.000000 0.540030 0.013987
1.000000 0.541559 0.011532
0.021957 0.646754 0.027066
0.055450 0.646305 0.025886
0.088943 0.645856 0.024705
0.126711 0.645106 0.026615
0.164478 0.644356 0.028524
0.204674 0.649478 0.030456
0.244869 0.654600 0.032388
0.286145 0.662372 0.034561
0.327420 0.670144 0.036734
0.373976 0.684756 0.041703
0.420532 0.699367 0.046672
0.458126 0.699687 0.037501
0.495721 0.700006 0.028330
0.532664 0.698354 0.030057
0.569607 0.696702 0.031784
0.597492 0.678640 0.024375
0.625376 0.660579 0.016966
0.661031 0.651534 0.009325
0.696686 0.642490 0.001685
0.731807 0.636119 0.000842
0.766928 0.629748 0.000000
0.812139 0.629483 0.000000
0.857350 0.629217 0.000000
0.895444 0.622668 0.000000
0.933539 0.616120 0.000000
0.953374 0.606716 0.000000
0.973209 0.597313 0.000000
0.978408 0.575167 0.017432
0.983606 0.553021 0.034864
0.991803 0.562902 0.028481
1.000000 0.572783 0.022098
1.000000 0.576420 0.018044
1.000000 0.580057 0.013989
0.017350 0.673234 0.018445
0.051052 0.674128 0.018398
0.084753 0.675023 0.018350
0.122720 0.674721 0.022034
0.160687 0.674420 0.025719
0.200136 0.677734 0.028117
0.239585 0.681048 0.030516
0.279659 0.686655 0.032209
0.319733 0.692262 0.033903
0.362408 0.701799 0.036177
0.405083 0.711335 0.038452
0.441397 0.711500 0.031234
0.477712 0.711666 0.024016
0.512290 0.708510 0.020720
0.546868 0.705353 0.017425
0.583819 0.700782 0.017700
0.620771 0.696211 0.017974
0.657545 0.690042 0.013263
0.694320 0.683873 0.008552
0.730893 0.678644 0.005768
0.767465 0.673414 0.002985
0.813001 0.674093 0.001493
0.858536 0.674771 0.000000
0.897795 0.671555 0.000000
0.937053 0.668340 0.000000
0.957339 0.659870 0.000000
0.977625 0.651400 0.000000
0.981675 0.625362 0.013145
0.985725 0.599323 0.026290
0.992862 0.606662 0.022929
1.000000 0.614001 0.019568
1.000000 0.616751 0.016457
1.000000 0.619500 0.013347
0.012742 0.699713 0.009824
0.046653 0.701951 0.010910
0.080564 0.704190 0.011995
0.118730 0.704337 0.017454
0.156897 0.704484 0.022913
0.195598 0.705990 0.025778
0.234300 0.707495 0.028643
0.273173 0.710938 0.029857
0.312046 0.714380 0.031071
0.350840 0.718842 0.030652
0.389634 0.723303 0.030233
0.424668 0.723314 0.024967
0.459703 0.723326 0.019702
0.491915 0.718665 0.011384
0.524128 0.714004 0.003067
0.570147 0.722924 0.011024
0.616166 0.731844 0.018982
0.654059 0.728550 0.017201
0.691953 0.725257 0.015419
0.729978 0.721168 0.010695
0.768003 0.717079 0.005970
0.813863 0.718702 0.002985
0.859723 0.720325 0.000000
0.900145 0.720442 0.000000
0.940568 0.720560 0.000000
0.961305 0.713024 0.000000
0.982041 0.705488 0.000000
0.984942 0.675557 0.008858
0.987843 0.645626 0.017717
0.993921 0.650423 0.017377
1.000000 0.655220 0.017038
1.000000 0.657081 0.014871
1.000000 0.658943 0.012704
0.014992 0.729926 0.012436
0.047533 0.732933 0.011966
0.080075 0.735941 0.011495
0.117980 0.734683 0.016950
0.155885 0.733425 0.022405
0.193873 0.733977 0.025226
0.231861 0.734529 0.028046
0.269975 0.737004 0.029215
0.308089 0.739478 0.030383
0.346073 0.742922 0.029973
0.384058 0.746365 0.029562
0.419791 0.747408 0.025895
0.455524 0.748450 0.022228
0.490227 0.747474 0.017019
0.524930 0.746498 0.011810
0.568486 0.754453 0.017162
0.612042 0.762407 0.022514
0.650532 0.762545 0.022224
0.689022 0.762682 0.021933
0.727071 0.758614 0.018187
0.765120 0.754546 0.014440
0.807075 0.754081 0.009801
0.849031 0.753615 0.005163
0.886933 0.752921 0.002662
0.924835 0.752226 0.000161
0.948840 0.747334 0.000080
0.972845 0.742442 0.000000
0.982457 0.721045 0.005693
0.992069 0.699647 0.011385
0.996034 0.698890 0.012274
1.000000 0.698133 0.013162
1.000000 0.697775 0.012252
1.000000 0.697418 0.011343
0.017242 0.760138 0.015048
0.048414 0.763915 0.013022
0.079586 0.767692 0.010995
0.117230 0.765030 0.016446
0.154874 0.762367 0.021897
0.192148 0.761965 0.024673
0.229422 0.761563 0.027449
0.266777 0.763069 0.028572
0.304132 0.764576 0.029696
0.341307 0.767002 0.029294
0.378482 0.769427 0.028892
0.414913 0.771501 0.026823
0.451345 0.773575 0.024754
0.488539 0.776284 0.022654
0.525733 0.778992 0.020553
0.566825 0.785981 0.023300
0.607918 0.792970 0.026046
0.647005 0.796539 0.027247
0.686092 0.800108 0.028448
0.724164 0.796061 0.025679
0.762237 0.792013 0.022910
0.800288 0.789459 0.016617
0.838339 0.786906 0.010325
0.873720 0.785399 0.005323
0.909102 0.783893 0.000321
0.936376 0.781645 0.000161
0.963649 0.779397 0.000000
0.979972 0.766532 0.002527
0.996295 0.753668 0.005053
0.998147 0.747357 0.007170
1.000000 0.741047 0.009286
1.000000 0.738470 0.009634
1.000000 0.735892 0.009981
0.020133 0.786579 0.018760
0.051836 0.789027 0.017686
0.083539 0.791474 0.016613
0.119702 0.789917 0.020280
0.155866 0.788360 0.023947
0.192267 0.788187 0.026080
0.228668 0.788015 0.028213
0.265383 0.789351 0.029166
0.302098 0.790688 0.030119
0.338878 0.792957 0.029933
0.375659 0.795226 0.029748
0.412173 0.797670 0.028461
0.448688 0.800114 0.027175
0.485905 0.803376 0.026025
0.523122 0.806637 0.024875
0.562642 0.812714 0.026994
0.602161 0.818790 0.029114
0.640412 0.822467 0.030527
0.678664 0.826144 0.031939
0.717089 0.823642 0.029936
0.755515 0.821139 0.027933
0.792063 0.818448 0.022034
0.828611 0.815757 0.016135
0.862723 0.813864 0.011198
0.896836 0.811970 0.006262
0.924867 0.809515 0.004791
0.952898 0.807060 0.003320
0.972679 0.797370 0.004782
0.992460 0.787681 0.006245
0.996230 0.781830 0.007721
1.000000 0.775979 0.009198
1.000000 0.773246 0.009549
1.000000 0.770514 0.009900
0.023024 0.813020 0.022472
0.055258 0.814138 0.022351
0.087491 0.815256 0.022230
0.122174 0.814804 0.024114
0.156857 0.814352 0.025997
0.192385 0.814409 0.027487
0.227914 0.814466 0.028976
0.263989 0.815633 0.029759
0.300064 0.816800 0.030542
0.336449 0.818912 0.030573
0.372835 0.821024 0.030603
0.409433 0.823839 0.030099
0.446032 0.826653 0.029595
0.483272 0.830468 0.029396
0.520512 0.834282 0.029196
0.558458 0.839446 0.030689
0.596404 0.844609 0.032182
0.633820 0.848395 0.033806
0.671237 0.852181 0.035431
0.710015 0.851223 0.034193
0.748792 0.850264 0.032955
0.783838 0.847436 0.027450
0.818883 0.844608 0.021944
0.851726 0.842328 0.017073
0.884570 0.840048 0.012202
0.913359 0.837385 0.009421
0.942148 0.834722 0.006641
0.965387 0.828208 0.007038
0.988625 0.821694 0.007436
0.994313 0.816302 0.008273
1.000000 0.810910 0.009109
1.000000 0.808023 0.009464
1.000000 0.805136 0.009819
0.024931 0.839243 0.024880
0.057169 0.840014 0.024903
0.089407 0.840785 0.024925
0.123510 0.840659 0.026241
0.157613 0.840533 0.027557
0.192582 0.840808 0.028672
0.227551 0.841083 0.029788
0.263132 0.842258 0.030427
0.298714 0.843434 0.031067
0.334709 0.845464 0.031178
0.370703 0.847494 0.031289
0.407010 0.850224 0.031039
0.443316 0.852953 0.030788
0.480134 0.856470 0.030741
0.516952 0.859988 0.030694
0.554215 0.864272 0.031686
0.591478 0.868555 0.032677
0.628356 0.871637 0.033648
0.665234 0.874718 0.034619
0.702636 0.874330 0.033481
0.740038 0.873942 0.032342
0.774558 0.871836 0.027942
0.809077 0.869731 0.023542
0.841511 0.867679 0.019352
0.873945 0.865627 0.015162
0.903112 0.863138 0.012538
0.932279 0.860649 0.009914
0.957309 0.855521 0.009675
0.982340 0.850394 0.009437
0.991170 0.845912 0.009790
1.000000 0.841430 0.010143
1.000000 0.838920 0.010321
1.000000 0.836410 0.010499
0.026837 0.865466 0.027288
0.059080 0.865890 0.027454
0.091323 0.866314 0.027620
0.124846 0.866513 0.028369
0.158370 0.866713 0.029117
0.192778 0.867207 0.029858
0.227187 0.867701 0.030599
0.262276 0.868884 0.031095
0.297364 0.870067 0.031591
0.332968 0.872016 0.031783
0.368572 0.873964 0.031976
0.404586 0.876608 0.031978
0.440601 0.879253 0.031980
0.476996 0.882473 0.032086
0.513392 0.885693 0.032192
0.549972 0.889097 0.032682
0.586552 0.892501 0.033172
0.622892 0.894878 0.033490
0.659231 0.897255 0.033808
0.695258 0.897437 0.032768
0.731284 0.897619 0.031728
0.765278 0.896237 0.028435
0.799271 0.894854 0.025141
0.831296 0.893030 0.021631
0.863321 0.891207 0.018122
0.892866 0.888891 0.015655
0.922411 0.886575 0.013188
0.949232 0.882834 0.012313
0.976054 0.879094 0.011437
0.988027 0.875522 0.011307
1.000000 0.871950 0.011177
1.000000 0.869817 0.011178
1.000000 0.867684 0.011179
0.027885 0.892527 0.028546
0.060050 0.892873 0.028701
0.092214 0.893219 0.028856
0.125458 0.893517 0.029405
0.158701 0.893815 0.029953
0.192764 0.894404 0.030515
0.226827 0.894993 0.031078
0.261548 0.896166 0.031478
0.296269 0.897338 0.031878
0.331503 0.899164 0.032060
0.366736 0.900990 0.032243
0.402359 0.903396 0.032274
0.437981 0.905802 0.032304
0.473891 0.908614 0.032357
0.509802 0.911425 0.032409
0.545779 0.914243 0.032625
0.581757 0.917060 0.032840
0.617449 0.918986 0.032818
0.653141 0.920913 0.032796
0.688380 0.921165 0.031722
0.723619 0.921417 0.030648
0.757211 0.920386 0.027930
0.790803 0.919354 0.025211
0.822678 0.917808 0.022249
0.854554 0.916262 0.019287
0.884395 0.914247 0.017078
0.914235 0.912231 0.014870
0.942002 0.909223 0.013866
0.969769 0.906214 0.012862
0.984885 0.903327 0.012529
1.000000 0.900440 0.012195
1.000000 0.898691 0.012088
1.000000 0.896942 0.011980
0.028932 0.919589 0.029805
0.061019 0.919857 0.029949
0.093106 0.920125 0.030092
0.126069 0.920521 0.030441
0.159032 0.920918 0.030789
0.192750 0.921602 0.031173
0.226467 0.922286 0.031558
0.260821 0.923448 0.031861
0.295174 0.924609 0.032165
0.330037 0.926313 0.032337
0.364900 0.928016 0.032510
0.400131 0.930184 0.032569
0.435362 0.932351 0.032628
0.470786 0.934754 0.032627
0.506211 0.937157 0.032626
0.541587 0.939388 0.032568
0.576963 0.941618 0.032509
0.612007 0.943094 0.032146
0.647051 0.944570 0.031784
0.681502 0.944893 0.030676
0.715954 0.945215 0.029568
0.749144 0.944535 0.027425
0.782335 0.943855 0.025282
0.814061 0.942586 0.022867
0.845787 0.941318 0.020452
0.875923 0.939603 0.018502
0.906059 0.937888 0.016552
