pipeline/lookcam/data/bias_stats.cube
TITLE "stats neutralizer bias"
LUT_3D_SIZE 9
DOMAIN_MIN 0 0 0
DOMAIN_MAX 1 1 1
0.010438 0.008074 0.008537
0.147962 0.012837 0.014775
0.308062 0.016508 0.015698
0.273599 0.000000 0.000000
0.574095 0.000000 0.019386
0.760246 0.048417 0.037720
0.799105 0.017063 0.006480
0.854581 0.000000 0.000000
0.970034 0.000000 0.003273
0.054683 0.220027 0.011427
0.156436 0.134589 0.000000
0.290988 0.139054 0.013042
0.487554 0.181763 0.023927
0.552555 0.150731 0.000422
0.705903 0.124825 0.000000
0.798970 0.130889 0.000000
0.895599 0.112187 0.000000
0.990494 0.120160 0.000000
0.038257 0.358311 0.032016
0.150113 0.286279 0.006053
0.269879 0.281816 0.000000
0.453635 0.283253 0.000000
0.606727 0.295358 0.000000
0.752750 0.336078 0.017661
0.876398 0.303542 0.000000
0.954572 0.268268 0.000000
1.000000 0.262896 0.000000
0.069364 0.551821 0.097967
0.185982 0.518085 0.032601
0.292837 0.449230 0.000000
0.438347 0.418620 0.000000
0.638129 0.481522 0.000000
0.812795 0.500914 0.000000
0.994287 0.516414 0.000000
0.992026 0.437254 0.000000
1.000000 0.423643 0.002678
0.021957 0.646754 0.027066
0.164478 0.644356 0.028524
0.327420 0.670144 0.036734
0.495721 0.700006 0.028330
0.625376 0.660579 0.016966
0.766928 0.629748 0.000000
0.933539 0.616120 0.000000
0.983606 0.553021 0.034864
1.000000 0.580057 0.013989
0.017242 0.760138 0.015048
0.154874 0.762367 0.021897
0.304132 0.764576 0.029696
0.451345 0.773575 0.024754
0.607918 0.792970 0.026046
0.762237 0.792013 0.022910
0.909102 0.783893 0.000321
0.996295 0.753668 0.005053
1.000000 0.735892 0.009981
0.026837 0.865466 0.027288
0.158370 0.866713 0.029117
0.297364 0.870067 0.031591
0.440601 0.879253 0.031980
0.586552 0.892501 0.033172
0.731284 0.897619 0.031728
0.863321 0.891207 0.018122
0.976054 0.879094 0.011437
1.000000 0.867684 0.011179
0.029970 0.975837 0.030948
0.159166 0.977213 0.031510
0.293373 0.980815 0.032287
0.430957 0.987078 0.032436
0.569104 0.993535 0.031415
0.704261 0.995829 0.027879
0.832624 0.993161 0.021149
0.953186 0.987810 0.015915
1.000000 0.983425 0.014035
0.030599 1.000000 0.031523
0.158993 1.000000 0.031789
0.291374 1.000000 0.032081
0.426217 1.000000 0.031734
0.560912 1.000000 0.029959
0.692683 1.000000 0.026237
0.819741 1.000000 0.021219
0.942518 1.000000 0.017057
1.000000 1.000000 0.015185
0.000000 0.000000 0.075077
0.183593 0.053617 0.160260
0.288396 0.000000 0.109931
0.574648 0.044707 0.161381
0.816208 0.104357 0.207392
0.796863 0.016093 0.124136
0.736016 0.000000 0.130544
0.818050 0.000000 0.128450
0.948136 0.002794 0.145438
0.008736 0.186141 0.178120
0.025485 0.026502 0.044526
0.303463 0.136318 0.126506
0.422369 0.115802 0.109548
0.559177 0.123453 0.110772
0.632785 0.117260 0.108308
0.639334 0.069885 0.086225
0.777577 0.073730 0.085078
0.933864 0.119017 0.133299
0.036551 0.344368 0.179305
0.213170 0.335578 0.165886
0.300398 0.361266 0.184189
0.356830 0.265169 0.116092
0.644916 0.357252 0.184590
0.731440 0.241092 0.077656
0.879099 0.266929 0.124672
0.945373 0.248815 0.107434
1.000000 0.251108 0.117666
0.024134 0.479497 0.177309
0.155982 0.461843 0.159238
0.296676 0.483996 0.163058
0.424362 0.438532 0.113840
0.484067 0.393732 0.086667
0.692757 0.414369 0.124574
0.835652 0.450175 0.155038
0.984125 0.433007 0.134875
1.000000 0.418392 0.129001
0.020544 0.648285 0.173071
0.140190 0.607161 0.158250
0.291877 0.633878 0.147919
0.463097 0.654352 0.159877
0.600434 0.645052 0.154920
0.637175 0.584959 0.107013
0.842782 0.546830 0.114458
1.000000 0.668446 0.172305
1.000000 0.590284 0.137479
0.025050 0.761632 0.161138
0.152111 0.772786 0.153474
0.299231 0.762885 0.160895
0.451563 0.775423 0.159078
0.613317 0.802389 0.155149
0.777339 0.819759 0.182075
0.930586 0.803921 0.126755
0.994658 0.784102 0.110304
1.000000 0.741892 0.131983
0.027720 0.862908 0.159850
0.157679 0.864663 0.160339
0.295128 0.867399 0.161454
0.441357 0.880816 0.163569
0.590236 0.899332 0.164522
0.737553 0.907605 0.168625
0.870942 0.902304 0.148654
0.980355 0.892991 0.137341
1.000000 0.871632 0.136436
0.028964 0.973069 0.158860
0.157730 0.974423 0.159264
0.291435 0.978053 0.159962
0.429422 0.985391 0.160517
0.567344 0.992346 0.159164
0.700964 0.993396 0.154839
0.828630 0.990636 0.147358
0.947774 0.986251 0.141558
1.000000 0.981069 0.139382
0.029200 1.000000 0.158103
0.157403 1.000000 0.158390
0.289487 1.000000 0.158762
0.424055 1.000000 0.158477
0.557920 1.000000 0.156331
0.688072 1.000000 0.151865
0.813683 1.000000 0.146361
0.935326 1.000000 0.142051
1.000000 1.000000 0.140121
0.000000 0.000000 0.001727
0.165382 0.028984 0.215325
0.288925 0.014799 0.247827
0.428612 0.002004 0.245051
0.586326 0.008658 0.255127
0.710011 0.000442 0.248765
0.780689 0.000000 0.252266
0.837163 0.000000 0.269643
0.945941 0.000000 0.272820
0.000000 0.175129 0.392592
0.260625 0.361537 0.538152
0.278104 0.165150 0.263187
0.425533 0.131000 0.230138
0.545012 0.098819 0.219207
0.717213 0.116570 0.234633
0.749421 0.129638 0.263043
0.803687 0.146857 0.300383
0.913148 0.091391 0.241333
0.010280 0.337467 0.324433
0.275639 0.334534 0.148787
0.222680 0.239945 0.263796
0.471940 0.330593 0.339189
0.492864 0.203491 0.221794
0.695295 0.251188 0.239762
0.831931 0.251626 0.247062
0.777807 0.278713 0.295369
0.896424 0.239654 0.263124
0.017251 0.477452 0.325034
0.145560 0.465919 0.314160
0.382778 0.556887 0.398031
0.433291 0.441770 0.256499
0.558613 0.484462 0.319384
0.856649 0.532244 0.349239
0.922720 0.498629 0.325129
0.968884 0.379429 0.246008
1.000000 0.398458 0.256169
0.024422 0.625143 0.320206
0.162363 0.640341 0.324021
0.306607 0.641789 0.322369
0.310984 0.476051 0.216253
0.654902 0.723462 0.372217
0.688222 0.553863 0.237448
0.798195 0.520516 0.220817
1.000000 0.659842 0.302952
1.000000 0.558116 0.251043
0.026654 0.746776 0.307228
0.150328 0.753730 0.303684
0.298271 0.758458 0.309216
0.450781 0.772863 0.311997
0.549872 0.734280 0.277013
0.804942 0.862985 0.340533
0.710247 0.686543 0.271436
0.852290 0.644689 0.210957
1.000000 0.700165 0.243099
0.026303 0.854361 0.295252
0.154349 0.855603 0.295349
0.284554 0.852614 0.293628
0.440328 0.878900 0.302645
0.605944 0.927167 0.313245
0.722505 0.900038 0.294485
0.873016 0.911009 0.284935
0.985848 0.921226 0.273093
1.000000 0.866565 0.262020
0.025919 0.966452 0.288201
0.153964 0.967594 0.288686
0.286124 0.970509 0.289620
0.424815 0.979691 0.291508
0.561673 0.986778 0.289552
0.685703 0.977858 0.279705
0.808841 0.971219 0.271349
0.928899 0.972998 0.267364
1.000000 0.968731 0.264620
0.025708 1.000000 0.285335
0.153560 1.000000 0.285803
0.284975 1.000000 0.286519
0.418799 1.000000 0.286451
0.550553 1.000000 0.283436
0.676085 1.000000 0.276902
0.797497 1.000000 0.270386
0.916841 1.000000 0.266168
1.000000 1.000000 0.264244
0.000000 0.000000 0.225438
0.107611 0.000000 0.292503
0.246885 0.000000 0.346549
0.381550 0.000000 0.358769
0.521661 0.000000 0.365997
0.651597 0.000000 0.368210
0.760606 0.000000 0.373872
0.856556 0.000000 0.384026
0.966030 0.000000 0.388230
0.000000 0.000000 0.127569
0.088806 0.042565 0.255045
0.263413 0.117902 0.361543
0.380614 0.095244 0.353713
0.520871 0.099835 0.363277
0.653990 0.097417 0.359239
0.775309 0.104019 0.364162
0.858819 0.113178 0.384066
0.955498 0.110994 0.389464
0.005810 0.374734 0.563966
0.105310 0.329447 0.545341
0.367048 0.379133 0.411525
0.599895 0.409225 0.425927
0.560139 0.261933 0.378751
0.702283 0.265488 0.370958
0.807749 0.212932 0.327025
0.895831 0.236090 0.372171
0.947714 0.245605 0.396591
0.000000 0.483472 0.487631
0.173159 0.515922 0.487362
0.247895 0.333304 0.275664
0.305250 0.365053 0.458307
0.642143 0.504913 0.491320
0.676955 0.346691 0.320856
0.894804 0.398666 0.372613
0.972556 0.385289 0.363118
0.994309 0.386353 0.386152
0.018147 0.621644 0.473501
0.158184 0.632302 0.479494
0.334107 0.646484 0.491478
0.550839 0.667396 0.449789
0.653862 0.661928 0.458323
0.767806 0.703662 0.537473
0.900480 0.669014 0.515643
0.973872 0.545560 0.391990
1.000000 0.531841 0.376900
0.022244 0.735223 0.447752
0.155938 0.743189 0.453046
0.307150 0.758077 0.465778
0.450666 0.768433 0.479185
0.669976 0.892783 0.518971
0.784656 0.861552 0.520720
0.686667 0.594651 0.325337
0.969194 0.648443 0.341306
1.000000 0.661884 0.367179
0.021448 0.843685 0.427253
0.150586 0.846133 0.429699
0.285120 0.848923 0.435061
0.443985 0.878766 0.452853
0.590505 0.907032 0.454948
0.577791 0.734698 0.348338
0.735993 0.757173 0.369376
0.811237 0.784901 0.373613
0.909132 0.746937 0.353430
0.020321 0.956805 0.415223
0.148246 0.958275 0.416604
0.280046 0.961502 0.419195
0.417384 0.969303 0.422073
0.549798 0.970502 0.417875
0.656863 0.942543 0.398099
0.762149 0.920786 0.388451
0.879023 0.916201 0.390060
0.995275 0.935947 0.388614
0.019816 1.000000 0.410482
0.147394 1.000000 0.411464
0.278127 1.000000 0.412978
0.410720 1.000000 0.413218
0.540181 1.000000 0.409341
0.660789 1.000000 0.400710
0.775543 1.000000 0.393015
0.889411 1.000000 0.387902
1.000000 1.000000 0.385849
0.000000 0.000000 0.423336
0.078691 0.000000 0.440931
0.205667 0.000000 0.467824
0.341202 0.000000 0.481916
0.479768 0.000000 0.489935
0.615650 0.000000 0.494050
0.742879 0.000000 0.498318
0.861286 0.000000 0.503697
0.980382 0.000000 0.506665
0.000000 0.000000 0.484622
0.047851 0.000000 0.450596
0.171143 0.027653 0.477185
0.317523 0.046805 0.484657
0.462922 0.060989 0.493303
0.608930 0.076852 0.494520
0.745221 0.091338 0.497076
0.864732 0.103635 0.503950
0.980417 0.108837 0.507980
0.000000 0.110662 0.526458
0.014932 0.098260 0.399422
0.057831 0.085910 0.522306
0.206177 0.079935 0.502000
0.392892 0.121900 0.512102
0.592927 0.183714 0.501875
0.747202 0.204212 0.497885
0.875558 0.231446 0.507385
0.982849 0.240513 0.511703
0.007147 0.489326 0.641729
0.079217 0.402715 0.654430
0.290800 0.547952 0.764585
0.465343 0.480317 0.549628
0.472035 0.297984 0.402168
0.674954 0.384024 0.526129
0.756589 0.300218 0.478905
0.904058 0.392092 0.527512
0.991615 0.380461 0.514001
0.005642 0.619904 0.621635
0.134275 0.644100 0.656169
0.351310 0.714331 0.684441
0.275498 0.390294 0.427218
0.605694 0.636293 0.613374
0.772738 0.636901 0.617745
0.778226 0.496957 0.505840
0.967708 0.515865 0.488970
1.000000 0.526103 0.508336
0.013425 0.723749 0.578205
0.146184 0.737503 0.593825
0.285335 0.740464 0.594386
0.367338 0.669118 0.525723
0.616323 0.713809 0.549702
0.729122 0.751098 0.566025
0.875908 0.759504 0.585182
1.000000 1.000000 0.811630
0.999978 0.624737 0.506497
0.012579 0.829859 0.550148
0.141980 0.835042 0.556413
0.275526 0.839424 0.561739
0.409817 0.839128 0.558769
0.553699 0.840349 0.552242
0.664856 0.800844 0.536911
0.698260 0.750963 0.545727
0.826872 0.756081 0.454518
1.000000 0.792582 0.469972
0.011538 0.943646 0.535756
0.139364 0.945965 0.538652
0.270429 0.949280 0.542642
0.403513 0.950773 0.543362
0.535979 0.946025 0.537516
0.658297 0.929118 0.525581
0.755981 0.901364 0.511850
0.880098 0.893689 0.520440
0.934378 0.922297 0.510702
0.011147 1.000000 0.530486
0.138453 1.000000 0.532365
0.268455 1.000000 0.535250
0.399992 1.000000 0.536265
0.530433 1.000000 0.533146
0.654570 1.000000 0.526260
0.766776 1.000000 0.517801
0.871245 1.000000 0.510025
0.974887 1.000000 0.502524
0.000000 0.000000 0.577087
0.070060 0.000000 0.584077
0.191009 0.000000 0.596240
0.322223 0.000000 0.606544
0.458682 0.000000 0.614299
0.596572 0.000000 0.619389
0.731116 0.000000 0.623134
0.859969 0.000000 0.626221
0.985415 0.000000 0.627842
0.000000 0.000000 0.583132
0.053987 0.000078 0.596737
0.165219 0.019640 0.605347
0.299467 0.036590 0.612313
0.439125 0.049550 0.619233
0.585088 0.067258 0.622827
0.727608 0.085193 0.625167
0.860974 0.099326 0.627507
0.987340 0.105858 0.628940
0.002043 0.127283 0.454693
0.023533 0.103128 0.659205
0.111773 0.114861 0.633140
0.241330 0.124746 0.632707
0.380505 0.126064 0.639830
0.546560 0.157200 0.636358
0.713173 0.192825 0.633319
0.864066 0.224024 0.631419
0.993806 0.236394 0.631358
0.000000 0.285503 0.510953
0.023252 0.250816 0.366207
0.000000 0.220205 0.853846
0.199995 0.246088 0.699223
0.361372 0.302739 0.760392
0.486185 0.241759 0.674877
0.672464 0.281149 0.657446
0.883057 0.361732 0.637465
1.000000 0.375379 0.632926
0.000537 0.555567 0.665174
0.153679 0.647273 0.776575
0.376493 0.603365 0.650265
0.214487 0.377279 0.565989
0.352400 0.420737 0.647098
0.475765 0.394779 0.695891
0.675381 0.448402 0.692533
1.000000 0.597025 0.664421
1.000000 0.517105 0.632296
0.000000 0.688840 0.667334
0.132354 0.730588 0.720847
0.277525 0.768520 0.772505
0.372360 0.715400 0.724395
0.549339 0.684369 0.680817
0.777905 0.866266 0.857640
0.765040 0.647433 0.630609
0.912326 0.659317 0.704977
0.980400 0.611355 0.590981
0.000000 0.805431 0.653196
0.127418 0.816014 0.667075
0.262476 0.830555 0.687779
0.386681 0.820899 0.685680
0.478358 0.730246 0.604486
0.769871 0.854895 0.698968
0.762437 0.768122 0.626785
0.846578 0.749153 0.641108
0.956754 0.758377 0.715420
0.000000 0.925154 0.645775
0.126474 0.928784 0.650936
0.256671 0.934157 0.659708
0.386730 0.933673 0.663349
0.520393 0.923913 0.654684
0.679914 0.932331 0.655894
0.785665 0.896426 0.618018
0.886150 0.914765 0.714271
0.915931 0.896409 0.639642
0.000000 1.000000 0.643288
0.126596 1.000000 0.646452
0.255881 1.000000 0.652237
0.387221 1.000000 0.656893
0.521467 1.000000 0.657641
0.656974 1.000000 0.657334
0.775121 1.000000 0.652374
0.885054 1.000000 0.663404
0.962582 1.000000 0.642226
0.000000 0.000000 0.698208
0.072465 0.000000 0.704726
0.194417 0.000000 0.715470
0.322979 0.000000 0.726306
0.456591 0.000000 0.735397
0.592603 0.000000 0.741895
0.727728 0.000000 0.746199
0.859359 0.000000 0.748904
0.986982 0.000000 0.750106
0.000000 0.022197 0.685646
0.067897 0.027072 0.698155
0.185716 0.038423 0.712965
0.314419 0.051800 0.726404
0.449140 0.063948 0.737275
0.587861 0.076797 0.743908
0.726621 0.090143 0.747671
0.860945 0.100901 0.749878
0.989517 0.105988 0.750859
0.000000 0.142318 0.638704
0.060381 0.143200 0.669013
0.172836 0.157176 0.697486
0.304640 0.176113 0.723399
0.438656 0.186263 0.742761
0.579986 0.197245 0.749204
0.726404 0.214572 0.751329
0.866990 0.230468 0.752095
0.997146 0.237536 0.752412
0.001416 0.276768 0.611137
0.050366 0.272914 0.608917
0.168430 0.286389 0.637769
0.335589 0.341411 0.705335
0.450568 0.335678 0.749683
0.587496 0.331433 0.751169
0.741927 0.351393 0.754424
0.886484 0.371046 0.754559
1.000000 0.376582 0.754166
0.000000 0.448197 0.646522
0.013745 0.434481 0.625110
0.252970 0.508497 0.731599
0.298692 0.494866 0.773814
0.474532 0.479555 0.719803
0.651519 0.481020 0.700255
0.815296 0.526373 0.746687
0.927862 0.529155 0.756102
1.000000 0.520507 0.756924
0.000000 0.618765 0.704308
0.085380 0.635516 0.723598
0.250641 0.673423 0.780363
0.483784 0.674403 0.772637
0.434254 0.636494 0.747965
0.722830 0.668984 0.814930
0.798284 0.631614 0.764034
0.930099 0.679627 0.784894
1.000000 0.661826 0.771519
0.000000 0.767800 0.733602
0.102409 0.775803 0.743432
0.239662 0.795186 0.770560
0.373317 0.824387 0.829603
0.520909 0.814585 0.834878
0.593404 0.800895 0.792590
0.799756 0.885189 0.911490
0.952608 0.754592 0.681174
1.000000 0.783478 0.792227
0.000000 0.902139 0.745890
0.109890 0.905875 0.751235
0.238934 0.914026 0.764768
0.369268 0.924686 0.787330
0.501208 0.919239 0.781260
0.696556 0.951393 0.798906
0.972115 1.000000 0.934905
0.891826 0.872634 0.818591
0.950335 0.922548 0.869769
0.000000 1.000000 0.750182
0.112839 1.000000 0.754127
0.241085 1.000000 0.763258
0.372642 1.000000 0.775765
0.509883 1.000000 0.785146
0.653772 1.000000 0.796701
0.788553 1.000000 0.809684
0.930586 1.000000 0.807774
0.922787 0.937409 0.791332
0.000000 0.000000 0.818926
0.075945 0.000000 0.824333
0.199962 0.000000 0.834374
0.328060 0.000000 0.845668
0.460052 0.000000 0.855792
0.594239 0.000000 0.863488
0.728246 0.000000 0.868678
0.859815 0.000000 0.871757
0.987742 0.000000 0.873030
0.000000 0.038099 0.807805
0.074116 0.042311 0.815269
0.196673 0.051596 0.828408
0.324954 0.063162 0.842661
0.457776 0.074527 0.854918
0.593376 0.085484 0.863558
0.729147 0.095796 0.869030
0.862021 0.103714 0.872137
0.990445 0.107425 0.873383
0.000000 0.157441 0.779492
0.070315 0.162206 0.790654
0.190636 0.175497 0.811575
0.320762 0.191029 0.834199
0.455322 0.203349 0.852340
0.593681 0.214328 0.863111
0.733317 0.226062 0.869448
0.868632 0.235377 0.872795
0.997649 0.239547 0.874008
0.000000 0.274640 0.741830
0.061281 0.280056 0.752175
0.180594 0.302874 0.782123
0.318433 0.327188 0.819104
0.455855 0.340767 0.846967
0.599647 0.350647 0.859456
0.746179 0.364814 0.868750
0.882639 0.374361 0.873304
1.000000 0.377424 0.874516
0.000000 0.382587 0.707069
0.036649 0.419504 0.727798
0.141164 0.429689 0.744100
0.292552 0.450560 0.784362
0.443878 0.482224 0.842751
0.608080 0.493576 0.850761
0.773570 0.518353 0.869711
0.904068 0.521953 0.874544
1.000000 0.519383 0.874720
0.000000 0.563516 0.758701
0.024139 0.559716 0.732180
0.142678 0.565174 0.734348
0.264717 0.554775 0.717706
0.500934 0.637011 0.817895
0.603907 0.647956 0.869809
0.846696 0.743375 0.932438
0.925870 0.673403 0.877662
1.000000 0.658686 0.873913
0.000000 0.735231 0.816943
0.074741 0.736201 0.814198
0.196735 0.736931 0.809366
0.313211 0.744557 0.815824
0.443004 0.724730 0.733719
0.723438 0.803809 0.867347
0.535200 0.473004 0.409620
0.938477 0.792105 0.844676
1.000000 0.780098 0.865913
0.000000 0.881989 0.846485
0.093527 0.884130 0.848880
0.218238 0.889737 0.857336
0.350949 0.902063 0.882814
0.499648 0.960806 0.980140
0.630525 0.965804 0.994723
0.893982 0.999982 0.993093
0.904292 0.932782 0.929998
0.965886 0.843077 1.000000
0.000000 1.000000 0.857487
0.100157 1.000000 0.860900
0.225906 1.000000 0.870438
0.354526 1.000000 0.889252
0.491682 1.000000 0.908556
0.631457 1.000000 0.912299
0.762536 1.000000 0.904044
0.935136 1.000000 0.929761
0.968723 1.000000 0.868438
0.000000 0.000000 0.942412
0.077618 0.000000 0.947241
0.202633 0.000000 0.956720
0.330787 0.000000 0.967935
0.462229 0.000000 0.978374
0.595638 0.000000 0.986592
0.728979 0.000000 0.992261
0.860222 0.000000 0.995627
0.988083 0.000000 0.997002
0.000000 0.044806 0.933061
0.076157 0.048777 0.938977
0.200461 0.057172 0.950543
0.328862 0.067822 0.964095
0.461157 0.078756 0.976440
0.595798 0.089156 0.985817
0.730442 0.098397 0.992079
0.862572 0.105194 0.995692
0.990766 0.108327 0.997132
0.000000 0.166194 0.912058
0.072477 0.171364 0.919872
0.195256 0.182333 0.935667
0.324742 0.195451 0.954421
0.459339 0.207918 0.971239
0.597122 0.219413 0.983405
0.734957 0.229843 0.991291
0.868851 0.237300 0.995608
0.997489 0.240546 0.997205
0.000000 0.287798 0.885665
0.064344 0.295286 0.894285
0.184416 0.309640 0.913155
0.316533 0.325360 0.937512
0.455730 0.340313 0.960812
0.600119 0.354472 0.977767
0.744361 0.367685 0.989300
0.880102 0.375246 0.994896
1.000000 0.377638 0.996564
0.000000 0.415498 0.868311
0.046907 0.425822 0.873081
0.162960 0.440535 0.886322
0.296928 0.451174 0.908107
0.443538 0.469875 0.939419
0.600887 0.492021 0.965835
0.759726 0.514583 0.986863
0.895433 0.519043 0.992494
1.000000 0.517655 0.993122
0.000000 0.563389 0.883983
0.037560 0.566177 0.873381
0.132025 0.570164 0.852003
0.264787 0.563672 0.850694
0.420710 0.582272 0.890232
0.591098 0.619335 0.933081
0.784580 0.676966 0.987192
0.908591 0.661710 0.979403
1.000000 0.652992 0.978902
0.000000 0.724156 0.927282
0.063629 0.724174 0.921521
0.169311 0.721520 0.906043
0.273410 0.700273 0.858694
0.411280 0.698717 0.847101
0.597195 0.727595 0.873010
0.758484 0.772844 0.906886
0.888756 0.760512 0.903734
1.000000 0.771131 0.933192
0.000000 0.872613 0.959581
0.084885 0.873769 0.959905
0.204821 0.875998 0.961525
0.324427 0.876828 0.963786
0.438795 0.862626 0.935465
0.545105 0.831190 0.831938
0.737469 0.861590 0.851254
0.878040 0.845250 0.781619
1.000000 0.888412 0.810938
0.000000 1.000000 0.973195
0.093327 1.000000 0.975833
0.216317 1.000000 0.983927
0.336556 1.000000 1.000000
0.464599 1.000000 1.000000
0.605222 1.000000 0.960987
0.753193 1.000000 0.905233
0.920015 1.000000 0.922363
0.981984 0.991542 0.855154
