archive/code-snapshots/pi-nimbus-deployed/pipeline/nimbus/data/bias_diffusion.cube
TITLE "diffusion neutralizer bias"
LUT_3D_SIZE 9
DOMAIN_MIN 0 0 0
DOMAIN_MAX 1 1 1
0.285257 0.286423 0.270821
0.490296 0.428651 0.390848
0.560632 0.204920 0.200010
0.565951 0.228438 0.256870
0.740194 0.249919 0.272050
0.877119 0.269258 0.192972
0.762886 0.219784 0.198756
0.753236 0.134884 0.129173
0.871971 0.154616 0.156843
0.958426 1.000000 0.897675
0.399680 0.397893 0.124510
0.683786 0.573405 0.396470
0.644964 0.614753 0.571230
0.551252 0.386419 0.349147
0.740803 0.459373 0.416931
0.746392 0.326100 0.266760
0.811260 0.289230 0.178131
0.887052 0.276066 0.183515
0.542872 0.764715 0.503159
0.540404 0.626062 0.329811
0.493237 0.517392 0.345500
0.478078 0.478402 0.376144
0.679380 0.608362 0.551729
0.787306 0.732655 0.738287
0.789477 0.536823 0.447187
0.835357 0.421269 0.286906
0.921317 0.393782 0.246988
0.417435 0.491365 0.418151
0.548421 0.689564 0.515628
0.519385 0.642806 0.213571
0.540058 0.547550 0.172927
0.595466 0.586992 0.502901
0.708199 0.610641 0.487666
0.756166 0.654705 0.554166
0.876906 0.583038 0.389771
0.976544 0.544776 0.328466
0.288623 0.623013 0.320458
0.463769 0.694893 0.388470
0.615295 0.791590 0.451563
0.679278 0.841146 0.498082
0.684651 0.709389 0.545828
0.806409 0.780830 0.620942
0.888800 0.803292 0.692452
0.950297 0.693980 0.357481
1.000000 0.672156 0.376176
0.243909 0.699084 0.291502
0.379493 0.717258 0.311992
0.502981 0.765072 0.335337
0.592330 0.785901 0.389327
0.714126 0.814018 0.569442
0.804640 0.838864 0.629431
0.890716 0.851844 0.616258
0.960814 0.829185 0.516487
1.000000 0.786465 0.417533
0.202786 0.781804 0.236565
0.324902 0.792404 0.246314
0.439197 0.814566 0.268629
0.544722 0.834611 0.320251
0.656730 0.854655 0.432228
0.750234 0.873262 0.483523
0.843677 0.890370 0.456490
0.939976 0.890886 0.422352
1.000000 0.880584 0.385506
0.173907 0.897319 0.201789
0.293272 0.901473 0.208431
0.405225 0.910790 0.225399
0.511044 0.922865 0.256547
0.613387 0.936156 0.299986
0.713725 0.951170 0.330782
0.817925 0.966312 0.338635
0.926837 0.974669 0.335461
1.000000 0.976072 0.328948
0.161195 1.000000 0.187348
0.280273 1.000000 0.192987
0.392102 1.000000 0.206817
0.498201 1.000000 0.229081
0.600763 1.000000 0.255851
0.703220 1.000000 0.278103
0.809740 1.000000 0.291112
0.921965 1.000000 0.296919
1.000000 1.000000 0.298350
0.348923 0.556870 0.717624
0.606062 0.566838 0.613785
0.684951 0.463905 0.616860
0.970615 0.381337 0.498553
0.994572 0.721464 0.753518
0.829342 0.125235 0.174808
0.784868 0.218700 0.304105
0.732199 0.146529 0.239062
0.857731 0.189061 0.299033
0.521532 0.626332 0.625783
0.083415 0.115678 0.265224
0.525128 0.414311 0.431444
0.707085 0.325618 0.335604
0.643619 0.279195 0.278800
0.787459 0.533542 0.576210
0.769910 0.250651 0.304001
0.733936 0.245046 0.259519
0.799206 0.289881 0.305798
0.341818 0.560032 0.424120
0.395510 0.509689 0.353312
0.597872 0.622063 0.515908
0.491471 0.470118 0.415396
0.623833 0.608972 0.628892
0.550799 0.338953 0.239229
0.973891 0.715550 0.690659
0.855824 0.426762 0.410364
0.894442 0.385744 0.350135
0.262742 0.408576 0.351513
0.404577 0.419182 0.430318
0.679580 0.780344 0.584500
0.605332 0.639193 0.462686
0.722328 0.681265 0.573660
0.646496 0.568220 0.489289
0.855472 0.689344 0.548005
0.906641 0.619479 0.532726
0.975167 0.547727 0.438525
0.254424 0.406621 0.344754
0.563096 0.794409 0.586846
0.579193 0.726174 0.508397
0.711471 0.778925 0.628394
0.646745 0.767802 0.527466
0.720270 0.693621 0.557253
0.507300 0.401714 0.344738
0.796283 0.678050 0.616782
0.984176 0.663639 0.503859
0.276918 0.652260 0.415375
0.423663 0.751664 0.488715
0.500082 0.711892 0.434861
0.588464 0.758708 0.453451
0.683001 0.795248 0.559917
0.749965 0.815526 0.730992
0.895118 0.865010 0.747883
0.933768 0.833895 0.696736
1.000000 0.775028 0.539644
0.209788 0.766447 0.349128
0.327390 0.769281 0.355947
0.433787 0.784582 0.369626
0.534859 0.807478 0.407998
0.613823 0.807536 0.463893
0.698701 0.826564 0.550865
0.825761 0.874967 0.557655
0.933000 0.888091 0.550876
1.000000 0.872598 0.504333
0.176015 0.891225 0.315346
0.293602 0.891953 0.320074
0.402450 0.896413 0.332889
0.505178 0.906480 0.356975
0.600689 0.917486 0.387228
0.696737 0.932288 0.415264
0.805158 0.952837 0.433078
0.918439 0.966451 0.442007
1.000000 0.970068 0.441776
0.162744 1.000000 0.302253
0.280923 1.000000 0.306692
0.391034 1.000000 0.317742
0.495165 1.000000 0.335608
0.595033 1.000000 0.356499
0.694966 1.000000 0.375059
0.801187 1.000000 0.389773
0.914886 1.000000 0.401642
1.000000 1.000000 0.408306
0.123002 0.034010 0.017867
0.536154 0.415349 0.541196
0.600711 0.340790 0.506494
0.627773 0.259096 0.435771
0.682116 0.207262 0.384526
0.764896 0.175235 0.362123
0.814141 0.198757 0.392023
0.828483 0.226768 0.430090
0.883337 0.205555 0.412818
0.541828 0.781462 1.000000
1.000000 1.000000 1.000000
0.552969 0.357239 0.379551
0.564190 0.333966 0.402169
0.733889 0.230119 0.342334
0.765299 0.295612 0.380029
0.815103 0.279147 0.377135
0.835906 0.550231 0.638408
0.667192 0.240232 0.284018
0.395582 0.537992 0.554565
0.000000 0.025094 0.220306
0.413316 0.447872 0.504197
0.698347 0.662069 0.686994
0.734111 0.422667 0.408026
0.717108 0.331330 0.321541
0.865628 0.457559 0.449851
0.889759 0.752129 0.800244
0.931458 0.327842 0.374451
0.351743 0.541955 0.517313
0.459055 0.578428 0.517844
0.797579 0.876125 0.815448
0.549910 0.555550 0.536639
0.661211 0.609896 0.544736
0.736893 0.716487 0.760092
0.930323 0.680728 0.669807
0.952182 0.501256 0.363736
0.981756 0.550501 0.503600
0.303688 0.548418 0.488729
0.351311 0.437662 0.413701
0.350830 0.484116 0.390021
0.426064 0.571987 0.179668
0.672800 0.734718 0.651779
0.856768 0.783442 0.669093
0.758189 0.664180 0.561564
0.949198 0.779990 0.737983
0.958881 0.641311 0.568019
0.263473 0.625748 0.470252
0.314199 0.449506 0.383460
0.460479 0.640197 0.480304
0.574406 0.742149 0.550931
0.586925 0.702043 0.436425
0.763262 0.872410 0.616327
0.912699 0.864274 0.727164
0.761099 0.697100 0.637658
0.945159 0.738918 0.607268
0.213128 0.756587 0.438986
0.320810 0.734876 0.433661
0.416396 0.725394 0.442313
0.521040 0.744950 0.476539
0.579170 0.745755 0.458901
0.628363 0.762653 0.466797
0.737503 0.780452 0.553715
0.883719 0.827510 0.608851
0.996797 0.852274 0.612231
0.180631 0.886701 0.416261
0.295279 0.880692 0.417680
0.397283 0.869205 0.422204
0.497288 0.874044 0.436940
0.590270 0.893092 0.449855
0.674837 0.905072 0.455495
0.780280 0.923928 0.476888
0.900837 0.946617 0.512227
1.000000 0.961708 0.544673
0.167227 1.000000 0.406391
0.283904 1.000000 0.408811
0.390900 1.000000 0.414906
0.492116 1.000000 0.425447
0.588291 1.000000 0.435878
0.682068 1.000000 0.443177
0.784014 1.000000 0.454524
0.899701 1.000000 0.477819
1.000000 1.000000 0.501713
0.154841 0.107363 0.279059
0.340057 0.182441 0.390747
0.476979 0.203224 0.450675
0.537766 0.156013 0.425914
0.614785 0.132792 0.413588
0.706226 0.132641 0.428619
0.787381 0.149778 0.459857
0.857254 0.172622 0.491444
0.942376 0.170340 0.491360
0.000000 0.000000 0.000000
0.326810 0.290668 0.368947
0.539163 0.395982 0.522911
0.524842 0.247623 0.398658
0.619744 0.253335 0.391051
0.708370 0.254630 0.421769
0.798172 0.260312 0.448667
0.861773 0.321063 0.518273
0.917839 0.290419 0.482435
0.623466 0.761392 0.890476
0.655778 0.876345 1.000000
0.440647 0.501784 0.563702
0.615414 0.462775 0.610306
0.704091 0.423229 0.404125
0.785466 0.501535 0.543465
0.796242 0.274496 0.327654
0.912441 0.570639 0.655217
0.938932 0.456388 0.552792
0.437961 0.656582 0.729945
0.598362 0.761252 0.760455
0.368883 0.467696 0.674600
0.656697 0.640591 0.593586
0.729439 0.715697 0.757266
0.739999 0.466310 0.478478
0.925665 0.671529 0.683945
0.936444 0.574582 0.557231
0.965988 0.587947 0.607956
0.363193 0.638604 0.617768
0.463560 0.639641 0.618036
0.659908 0.768347 0.610588
0.631335 0.661503 0.255780
0.576357 0.576780 0.564347
0.783723 0.744413 0.705676
0.813565 0.751406 0.764396
0.809468 0.561226 0.577841
0.880385 0.538181 0.524970
0.288247 0.685467 0.564607
0.399561 0.674747 0.567681
0.533222 0.737664 0.622713
0.591054 0.761530 0.683604
0.771272 0.868146 0.682906
0.682369 0.742763 0.539355
0.759061 0.688608 0.601947
0.808270 0.743192 0.608032
0.881643 0.701926 0.602177
0.228621 0.779660 0.532388
0.339752 0.768638 0.533349
0.430267 0.738572 0.537379
0.545888 0.732699 0.575344
0.629084 0.789575 0.557932
0.586650 0.733048 0.380928
0.738029 0.816161 0.485614
0.973506 0.914385 0.774864
0.973182 0.854955 0.743752
0.191607 0.893644 0.512719
0.305433 0.885773 0.513325
0.403924 0.864398 0.512964
0.502348 0.860230 0.520837
0.594195 0.882497 0.520456
0.661089 0.884363 0.487648
0.743661 0.887282 0.464778
0.870615 0.917288 0.479516
1.000000 0.975937 0.680470
0.176420 1.000000 0.504596
0.292175 1.000000 0.505719
0.396940 1.000000 0.508086
0.495175 0.999393 0.511916
0.586776 1.000000 0.511674
0.671353 1.000000 0.503638
0.759999 1.000000 0.497512
0.874097 1.000000 0.523193
1.000000 1.000000 0.589999
0.092282 0.005994 0.285438
0.244224 0.053028 0.356669
0.374257 0.084715 0.423061
0.471294 0.084790 0.449238
0.566189 0.085415 0.468208
0.666992 0.094455 0.497226
0.765866 0.109541 0.530960
0.864279 0.127111 0.561084
0.972422 0.133988 0.573127
0.000000 0.000000 0.054747
0.232361 0.132591 0.270382
0.347317 0.174481 0.371951
0.438688 0.176024 0.402009
0.541537 0.191396 0.429888
0.655891 0.211303 0.477964
0.758322 0.226719 0.519482
0.860817 0.259497 0.569000
0.966909 0.269326 0.585601
0.314631 0.279143 0.262520
0.263943 0.215255 0.190174
0.233227 0.154198 0.220476
0.232091 0.107528 0.155342
0.435182 0.246728 0.300236
0.634755 0.325769 0.447320
0.719886 0.313226 0.471257
0.855205 0.420389 0.607354
0.959581 0.431823 0.634584
0.594517 0.750639 0.829726
0.469390 0.615188 0.574063
0.582628 0.790973 0.976475
0.814238 0.788953 0.753256
0.488430 0.314357 0.360231
0.704479 0.405308 0.484812
0.741390 0.399247 0.441284
0.860524 0.640850 0.716471
0.921584 0.584405 0.689596
0.484634 0.644712 0.650709
0.557809 0.736980 0.783144
0.551301 0.621163 0.649225
0.255248 0.361446 0.550463
0.738979 0.780863 0.856315
0.789036 0.759504 0.758173
0.860393 0.651285 0.648967
0.857500 0.674498 0.690271
0.697981 0.377209 0.432035
0.338573 0.728032 0.655210
0.450107 0.737094 0.677946
0.514337 0.704349 0.657880
0.569081 0.676067 0.696488
0.890313 0.970163 1.000000
0.717586 0.722825 0.696178
0.775408 0.720230 0.692663
1.000000 0.781598 0.777951
0.877928 0.680686 0.583436
0.255007 0.804441 0.623908
0.367247 0.798658 0.627460
0.457974 0.778125 0.627335
0.546607 0.755774 0.638359
0.640254 0.783703 0.626362
0.653319 0.770238 0.498562
1.000000 1.000000 0.826029
0.839175 0.764884 0.710329
0.820019 0.748287 0.571246
0.208362 0.904866 0.605890
0.322675 0.898601 0.607136
0.423107 0.884330 0.608639
0.515626 0.871950 0.609716
0.599681 0.871552 0.598674
0.669889 0.872543 0.581699
0.725206 0.858876 0.584313
0.775866 0.815143 0.404952
1.000000 0.995111 0.887691
0.189846 1.000000 0.599208
0.305427 1.000000 0.600162
0.409295 1.000000 0.601490
0.503892 0.996176 0.600776
0.590568 0.991275 0.594151
0.671875 0.991686 0.584617
0.748122 0.990809 0.565571
0.836247 0.987169 0.538322
0.987161 1.000000 0.665892
0.099488 0.007483 0.410396
0.226150 0.024868 0.445796
0.341426 0.042572 0.491170
0.443515 0.051544 0.525928
0.542830 0.058000 0.554663
0.647250 0.068011 0.586519
0.754719 0.081198 0.619050
0.865918 0.094915 0.646491
0.983571 0.102000 0.659780
0.095103 0.103771 0.337051
0.216912 0.120739 0.388436
0.328065 0.143915 0.447391
0.424258 0.156973 0.489168
0.517691 0.164049 0.519032
0.629225 0.180577 0.563611
0.741039 0.198761 0.606508
0.857835 0.221462 0.647304
0.977409 0.232672 0.666977
0.506878 0.643390 0.707934
0.219334 0.203435 0.306340
0.322551 0.246388 0.388412
0.385155 0.245750 0.409611
0.410151 0.206316 0.385466
0.572461 0.264740 0.496394
0.691216 0.295101 0.561536
0.835707 0.352356 0.652212
0.960749 0.373526 0.689607
0.554574 0.586627 0.615134
0.585525 0.616580 0.640284
0.101790 0.167085 0.216747
0.486068 0.419601 0.406885
0.660725 0.479098 0.548972
0.564271 0.384179 0.466832
0.577898 0.358682 0.465764
0.815715 0.505584 0.688764
0.920633 0.518651 0.731782
0.490850 0.689378 0.728261
0.698087 0.836323 0.929937
0.707905 0.833035 0.991658
0.380634 0.424951 0.455497
0.500513 0.500881 0.506902
0.719952 0.589019 0.610454
0.786263 0.536673 0.527177
0.931640 0.849202 0.947344
0.859598 0.579357 0.700964
0.370626 0.743874 0.723380
0.513356 0.770117 0.772962
0.618851 0.754228 0.773136
0.690139 0.826754 0.866862
0.610457 0.679978 0.791593
0.793542 0.879143 0.980557
0.821543 0.732200 0.658190
0.944987 0.767191 0.772377
0.749784 0.542177 0.523278
0.278812 0.814364 0.702132
0.394624 0.809961 0.707051
0.489964 0.795658 0.712582
0.554160 0.767744 0.713304
0.659134 0.732072 0.694903
0.742552 0.766999 0.546564
0.712860 0.738633 0.753133
0.868545 0.831508 0.765205
0.968930 0.851461 0.814191
0.225759 0.911050 0.693408
0.340825 0.905387 0.695674
0.441632 0.892395 0.700747
0.526800 0.870594 0.701590
0.599184 0.838669 0.678445
0.688098 0.845845 0.681231
0.760753 0.863242 0.725173
0.984122 1.000000 0.830778
0.861147 0.795560 0.760181
0.204537 1.000000 0.690697
0.320324 1.000000 0.692150
0.423815 1.000000 0.694466
0.514973 0.988058 0.692264
0.595877 0.966514 0.680440
0.684907 0.968450 0.682291
0.775967 0.987223 0.678356
0.858862 1.000000 0.607488
0.917702 0.962226 0.647083
0.126903 0.039870 0.580500
0.242001 0.041742 0.595260
0.347565 0.045691 0.621365
0.446649 0.049012 0.648486
0.544849 0.052090 0.674071
0.647585 0.057532 0.700240
0.756014 0.065692 0.725916
0.870252 0.074310 0.746970
0.990425 0.079032 0.757392
0.159848 0.183532 0.574226
0.260129 0.173106 0.583623
0.357378 0.172763 0.610951
0.449276 0.174036 0.639242
0.540758 0.173930 0.663808
0.640816 0.178132 0.691104
0.749111 0.187439 0.720099
0.864931 0.199285 0.746469
0.985911 0.205840 0.759904
0.327391 0.430666 0.633430
0.317484 0.330428 0.579087
0.399032 0.322597 0.612307
0.474691 0.318498 0.642976
0.544148 0.302781 0.657391
0.630683 0.296350 0.677116
0.734695 0.304955 0.707998
0.854233 0.325084 0.747363
0.976108 0.335268 0.767366
0.512384 0.628777 0.697522
0.459255 0.545978 0.633270
0.475146 0.500951 0.645525
0.570264 0.535468 0.736964
0.601665 0.483400 0.727141
0.645605 0.430290 0.691187
0.731849 0.424107 0.702411
0.849617 0.456109 0.757937
0.964343 0.464651 0.779690
0.516157 0.666020 0.734407
0.491436 0.597787 0.669109
0.515965 0.624866 0.801191
0.280259 0.485442 0.767995
0.577881 0.624459 0.786959
0.644958 0.543592 0.728925
0.777520 0.541220 0.709376
0.867574 0.599497 0.785966
0.958389 0.581280 0.782042
0.380058 0.716975 0.743504
0.497581 0.719404 0.757108
0.530162 0.664722 0.738748
0.718745 0.789959 0.860589
0.515605 0.707987 0.947982
0.749458 0.689559 0.748703
0.760235 0.621719 0.680827
0.957694 0.746012 0.803015
0.967323 0.700620 0.795725
0.295049 0.808338 0.766134
0.409919 0.802471 0.768895
0.507455 0.794611 0.790934
0.600934 0.820350 0.919058
0.755524 0.763590 0.814094
0.698115 0.788762 0.869898
0.833710 0.881135 0.964598
0.859014 0.658524 0.643121
0.930583 0.756058 0.812181
0.240241 0.910228 0.777351
0.356179 0.904230 0.780233
0.459792 0.892009 0.793502
0.549927 0.873452 0.828847
0.550433 0.748659 0.737261
0.599839 0.705010 0.754849
1.000000 1.000000 1.000000
0.905750 0.910172 0.790276
0.826601 0.840638 0.855662
0.217586 1.000000 0.781489
0.334057 1.000000 0.783158
0.439133 1.000000 0.787143
0.531936 0.974281 0.787357
0.606967 0.930570 0.766162
0.706721 0.936126 0.784235
0.832782 0.993186 0.828891
0.973644 1.000000 0.796491
0.552573 0.587548 0.407774
0.142011 0.057336 0.736063
0.255230 0.055840 0.744415
0.357714 0.054259 0.761455
0.455020 0.053175 0.782208
0.552285 0.052927 0.803418
0.653735 0.054575 0.824224
0.761374 0.058411 0.843635
0.875535 0.062940 0.858986
0.995942 0.065549 0.866512
0.170897 0.196935 0.735148
0.277067 0.191115 0.742308
0.372135 0.186095 0.759847
0.462988 0.182537 0.781308
0.554929 0.179742 0.802207
0.652920 0.179311 0.822147
0.759043 0.182478 0.841632
0.872928 0.187523 0.858238
0.993329 0.190593 0.866694
0.250419 0.361419 0.737575
0.332954 0.342803 0.741539
0.409111 0.330049 0.761587
0.484644 0.321424 0.786250
0.563910 0.312408 0.806802
0.653147 0.305261 0.821408
0.755394 0.305674 0.838275
0.868274 0.311435 0.856763
0.988216 0.315181 0.866936
0.389545 0.539273 0.737277
0.426564 0.512364 0.748613
0.460101 0.476768 0.761859
0.513986 0.467341 0.800988
0.575819 0.453731 0.831312
0.655378 0.433486 0.828851
0.754595 0.428138 0.834420
0.865062 0.433687 0.853412
0.982682 0.436933 0.864980
0.467405 0.593698 0.674939
0.497183 0.617414 0.714896
0.440690 0.544466 0.696382
0.531407 0.599898 0.797842
0.550526 0.591142 0.885433
0.643101 0.554725 0.838329
0.755100 0.546028 0.813730
0.863383 0.548051 0.836850
0.977094 0.549547 0.853548
0.404812 0.694544 0.775184
0.625604 0.750776 0.810984
0.602017 0.709510 0.786207
0.579735 0.663498 0.727434
0.659094 0.762506 0.880264
0.639163 0.692609 0.843702
0.727395 0.674262 0.656682
0.839591 0.620919 0.760727
0.964491 0.642581 0.825811
0.307840 0.800257 0.837553
0.431003 0.797220 0.836631
0.523152 0.773146 0.826195
0.620729 0.785174 0.879308
0.560743 0.673440 0.764884
0.756445 0.839025 0.922428
0.614971 0.488637 0.466606
0.600905 0.469302 0.486991
0.939694 0.687672 0.768215
0.250357 0.906432 0.866964
0.368010 0.899261 0.867107
0.474707 0.881643 0.871236
0.589038 0.865657 0.899107
0.654136 0.794712 0.925483
0.842013 0.878706 0.956830
0.940042 0.982214 1.000000
0.887864 0.911066 0.967572
0.989195 0.887751 0.904371
0.226854 1.000000 0.877773
0.344145 1.000000 0.877669
0.451188 0.991183 0.876947
0.549750 0.946722 0.870074
0.648291 0.906949 0.851114
0.759205 0.935227 0.881171
0.828228 0.930613 0.872925
0.928963 0.992381 0.891124
1.000000 1.000000 0.887046
0.146541 0.062690 0.873200
0.259973 0.060828 0.879922
0.362177 0.057949 0.894022
0.459144 0.055341 0.912144
0.556191 0.053731 0.931258
0.657280 0.053819 0.949691
0.764515 0.055768 0.966287
0.878399 0.058491 0.979033
0.998714 0.060142 0.985201
0.170220 0.197638 0.871773
0.279785 0.194175 0.878615
0.376176 0.189196 0.893381
0.467462 0.184595 0.912232
0.559931 0.181055 0.931457
0.657953 0.179434 0.949178
0.763578 0.180417 0.965215
0.876796 0.182910 0.978080
0.996895 0.184584 0.984513
0.224678 0.341936 0.867049
0.325062 0.335874 0.874921
0.408117 0.327316 0.891918
0.486044 0.318845 0.913234
0.568163 0.311493 0.933702
0.659606 0.305916 0.949134
0.761968 0.304401 0.962726
0.873712 0.306020 0.975240
0.993208 0.307515 0.982089
0.296927 0.477930 0.852627
0.387041 0.474069 0.863817
0.452704 0.464708 0.883663
0.509116 0.452057 0.909569
0.576203 0.441859 0.936916
0.660217 0.431766 0.948822
0.759867 0.426616 0.956426
0.869757 0.425890 0.967495
0.988130 0.426402 0.974964
0.347097 0.575555 0.830435
0.446859 0.585494 0.836684
0.505859 0.590528 0.851929
0.531154 0.571925 0.877863
0.576125 0.561423 0.924032
0.655679 0.553323 0.939263
0.755263 0.545781 0.937658
0.862558 0.537936 0.947352
0.979744 0.535951 0.957725
0.352071 0.679393 0.869135
0.503780 0.699710 0.866427
0.637548 0.743119 0.835306
0.608462 0.700014 0.801782
0.576095 0.644779 0.836064
0.662066 0.675817 0.913414
0.749901 0.672068 0.909321
0.843390 0.633992 0.910010
0.963058 0.629741 0.929156
0.303916 0.794583 0.936658
0.431402 0.793438 0.931233
0.533434 0.768632 0.897688
0.612022 0.717500 0.812744
0.663669 0.750129 0.841038
0.756221 0.871973 0.996179
0.737013 0.788437 0.926405
0.799971 0.705190 0.877631
0.942837 0.715697 0.908776
0.253742 0.903736 0.973944
0.372555 0.895564 0.970848
0.478715 0.871155 0.960757
0.572803 0.826420 0.939799
0.633292 0.772311 0.883636
0.730661 0.789661 0.870411
0.797472 0.878072 0.959877
0.770901 0.824076 0.897009
0.925502 0.833352 0.923105
0.230846 1.000000 0.988120
0.348417 1.000000 0.985913
0.454683 0.979687 0.977930
0.544410 0.900244 0.951068
0.637314 0.866894 0.923714
0.740878 0.916182 0.943338
0.827621 0.928740 0.939888
0.933629 0.962614 0.982190
0.945797 0.940793 0.952669
