archive/code-snapshots/pi-nimbus-deployed/pipeline/nimbus/data/bias_diffusion.cube
TITLE "diffusion neutralizer bias"
LUT_3D_SIZE 5
DOMAIN_MIN 0 0 0
DOMAIN_MAX 1 1 1
0.285257 0.286423 0.270821
0.560632 0.204920 0.200010
0.740194 0.249919 0.272050
0.762886 0.219784 0.198756
0.871971 0.154616 0.156843
0.542872 0.764715 0.503159
0.493237 0.517392 0.345500
0.679380 0.608362 0.551729
0.789477 0.536823 0.447187
0.921317 0.393782 0.246988
0.288623 0.623013 0.320458
0.615295 0.791590 0.451563
0.684651 0.709389 0.545828
0.888800 0.803292 0.692452
1.000000 0.672156 0.376176
0.202786 0.781804 0.236565
0.439197 0.814566 0.268629
0.656730 0.854655 0.432228
0.843677 0.890370 0.456490
1.000000 0.880584 0.385506
0.161195 1.000000 0.187348
0.392102 1.000000 0.206817
0.600763 1.000000 0.255851
0.809740 1.000000 0.291112
1.000000 1.000000 0.298350
0.123002 0.034010 0.017867
0.600711 0.340790 0.506494
0.682116 0.207262 0.384526
0.814141 0.198757 0.392023
0.883337 0.205555 0.412818
0.395582 0.537992 0.554565
0.413316 0.447872 0.504197
0.734111 0.422667 0.408026
0.865628 0.457559 0.449851
0.931458 0.327842 0.374451
0.303688 0.548418 0.488729
0.350830 0.484116 0.390021
0.672800 0.734718 0.651779
0.758189 0.664180 0.561564
0.958881 0.641311 0.568019
0.213128 0.756587 0.438986
0.416396 0.725394 0.442313
0.579170 0.745755 0.458901
0.737503 0.780452 0.553715
0.996797 0.852274 0.612231
0.167227 1.000000 0.406391
0.390900 1.000000 0.414906
0.588291 1.000000 0.435878
0.784014 1.000000 0.454524
1.000000 1.000000 0.501713
0.092282 0.005994 0.285438
0.374257 0.084715 0.423061
0.566189 0.085415 0.468208
0.765866 0.109541 0.530960
0.972422 0.133988 0.573127
0.314631 0.279143 0.262520
0.233227 0.154198 0.220476
0.435182 0.246728 0.300236
0.719886 0.313226 0.471257
0.959581 0.431823 0.634584
0.484634 0.644712 0.650709
0.551301 0.621163 0.649225
0.738979 0.780863 0.856315
0.860393 0.651285 0.648967
0.697981 0.377209 0.432035
0.255007 0.804441 0.623908
0.457974 0.778125 0.627335
0.640254 0.783703 0.626362
1.000000 1.000000 0.826029
0.820019 0.748287 0.571246
0.189846 1.000000 0.599208
0.409295 1.000000 0.601490
0.590568 0.991275 0.594151
0.748122 0.990809 0.565571
0.987161 1.000000 0.665892
0.126903 0.039870 0.580500
0.347565 0.045691 0.621365
0.544849 0.052090 0.674071
0.756014 0.065692 0.725916
0.990425 0.079032 0.757392
0.327391 0.430666 0.633430
0.399032 0.322597 0.612307
0.544148 0.302781 0.657391
0.734695 0.304955 0.707998
0.976108 0.335268 0.767366
0.516157 0.666020 0.734407
0.515965 0.624866 0.801191
0.577881 0.624459 0.786959
0.777520 0.541220 0.709376
0.958389 0.581280 0.782042
0.295049 0.808338 0.766134
0.507455 0.794611 0.790934
0.755524 0.763590 0.814094
0.833710 0.881135 0.964598
0.930583 0.756058 0.812181
0.217586 1.000000 0.781489
0.439133 1.000000 0.787143
0.606967 0.930570 0.766162
0.832782 0.993186 0.828891
0.552573 0.587548 0.407774
0.146541 0.062690 0.873200
0.362177 0.057949 0.894022
0.556191 0.053731 0.931258
0.764515 0.055768 0.966287
0.998714 0.060142 0.985201
0.224678 0.341936 0.867049
0.408117 0.327316 0.891918
0.568163 0.311493 0.933702
0.761968 0.304401 0.962726
0.993208 0.307515 0.982089
0.347097 0.575555 0.830435
0.505859 0.590528 0.851929
0.576125 0.561423 0.924032
0.755263 0.545781 0.937658
0.979744 0.535951 0.957725
0.303916 0.794583 0.936658
0.533434 0.768632 0.897688
0.663669 0.750129 0.841038
0.737013 0.788437 0.926405
0.942837 0.715697 0.908776
0.230846 1.000000 0.988120
0.454683 0.979687 0.977930
0.637314 0.866894 0.923714
0.827621 0.928740 0.939888
0.945797 0.940793 0.952669
