archive/code-snapshots/pi-nimbus-deployed/pipeline/nimbus/data/bias_diffusion.cube
TITLE "diffusion neutralizer bias"
LUT_3D_SIZE 33
DOMAIN_MIN 0 0 0
DOMAIN_MAX 1 1 1
0.285257 0.286423 0.270821
0.293178 0.253383 0.227200
0.301099 0.220343 0.183580
0.395698 0.324497 0.287214
0.490296 0.428651 0.390848
0.547730 0.420444 0.396157
0.605165 0.412236 0.401465
0.582898 0.308578 0.300738
0.560632 0.204920 0.200010
0.390287 0.102460 0.100005
0.219943 0.000000 0.000000
0.392947 0.114219 0.128435
0.565951 0.228438 0.256870
0.600097 0.307407 0.331477
0.634243 0.386375 0.406084
0.687219 0.318147 0.339067
0.740194 0.249919 0.272050
0.786054 0.324865 0.321916
0.831914 0.399811 0.371781
0.854517 0.334535 0.282376
0.877119 0.269258 0.192972
0.906208 0.325102 0.240835
0.935298 0.380947 0.288698
0.849092 0.300365 0.243727
0.762886 0.219784 0.198756
0.739089 0.179582 0.165244
0.715291 0.139381 0.131733
0.734264 0.137132 0.130453
0.753236 0.134884 0.129173
0.782399 0.141341 0.137964
0.811563 0.147799 0.146754
0.841767 0.151207 0.151799
0.871971 0.154616 0.156843
0.142628 0.198774 0.179240
0.230186 0.243911 0.212731
0.317745 0.289047 0.246223
0.344429 0.316558 0.276168
0.371114 0.344069 0.306113
0.442534 0.380739 0.346555
0.513954 0.417408 0.386996
0.514119 0.374283 0.351646
0.514284 0.331158 0.316295
0.419930 0.263892 0.252788
0.325575 0.196627 0.189282
0.345571 0.155423 0.158858
0.365567 0.114219 0.128435
0.428356 0.153703 0.165739
0.491145 0.193187 0.203042
0.508994 0.159074 0.169534
0.526844 0.124960 0.136025
0.628289 0.255409 0.250490
0.729734 0.385859 0.364954
0.806937 0.408444 0.358913
0.884140 0.431029 0.352871
0.898070 0.425909 0.338160
0.912001 0.420790 0.323448
0.808347 0.318543 0.260276
0.704693 0.216296 0.197104
0.697099 0.182429 0.158867
0.689505 0.148562 0.120630
0.720436 0.155271 0.124836
0.751367 0.161980 0.129042
0.782444 0.170281 0.139832
0.813520 0.178583 0.150623
0.843499 0.181897 0.155794
0.873478 0.185211 0.160964
0.000000 0.111126 0.087659
0.167195 0.234439 0.198263
0.334390 0.357752 0.308866
0.293161 0.308619 0.265122
0.251932 0.259486 0.221378
0.337337 0.341034 0.296953
0.422743 0.422581 0.372527
0.445340 0.439988 0.402554
0.467937 0.457395 0.432580
0.449572 0.425325 0.405572
0.431207 0.393254 0.378563
0.298195 0.196627 0.189282
0.165184 0.000000 0.000000
0.256615 0.000000 0.000000
0.348047 0.000000 0.000000
0.330770 0.000000 0.000000
0.313494 0.000000 0.000000
0.470524 0.185953 0.179064
0.627554 0.371906 0.358128
0.759357 0.482354 0.435449
0.891161 0.592801 0.512771
0.889932 0.526717 0.435484
0.888704 0.460632 0.358198
0.767602 0.336720 0.276825
0.646501 0.212807 0.195452
0.655110 0.185276 0.152490
0.663719 0.157744 0.109528
0.706609 0.173410 0.119219
0.749499 0.189076 0.128910
0.782488 0.199222 0.141701
0.815477 0.209367 0.154492
0.845232 0.212587 0.159789
0.874986 0.215806 0.165085
0.479213 0.555563 0.492667
0.503394 0.556449 0.426440
0.527574 0.557334 0.360212
0.426690 0.443012 0.266578
0.325806 0.328689 0.172944
0.355075 0.358825 0.269178
0.384344 0.388960 0.365411
0.480103 0.452180 0.389968
0.575862 0.515400 0.414525
0.517574 0.461049 0.390480
0.459286 0.406698 0.366434
0.432180 0.357037 0.326025
0.405074 0.307376 0.285615
0.465706 0.314043 0.295357
0.526337 0.320709 0.305100
0.479355 0.256959 0.239837
0.432373 0.193209 0.174574
0.504567 0.278825 0.254133
0.576761 0.364441 0.333691
0.696372 0.445264 0.399271
0.815982 0.526087 0.464851
0.836008 0.486549 0.413575
0.856035 0.447012 0.362299
0.776241 0.358233 0.296702
0.696447 0.269453 0.231106
0.699839 0.242562 0.187974
0.703232 0.215672 0.144842
0.741806 0.227412 0.149181
0.780380 0.239153 0.153520
0.803968 0.241416 0.160281
0.827556 0.243679 0.167041
0.854288 0.244807 0.170670
0.881019 0.245936 0.174300
0.958426 1.000000 0.897675
0.839592 0.878458 0.654617
0.720759 0.756917 0.411558
0.560219 0.577405 0.268034
0.399680 0.397893 0.124510
0.372812 0.376616 0.241403
0.345945 0.355339 0.358296
0.514866 0.464372 0.377383
0.683786 0.573405 0.396470
0.585576 0.496773 0.375388
0.487366 0.420141 0.354306
0.566165 0.517447 0.462768
0.644964 0.614753 0.571230
0.674796 0.628085 0.590715
0.704628 0.641418 0.610199
0.627940 0.513918 0.479673
0.551252 0.386419 0.349147
0.538610 0.371697 0.329201
0.525968 0.356976 0.309255
0.633386 0.408174 0.363093
0.740803 0.459373 0.416931
0.782085 0.446382 0.391665
0.823366 0.433392 0.366399
0.784879 0.379746 0.316580
0.746392 0.326100 0.266760
0.744569 0.299849 0.223457
0.742745 0.273599 0.180155
0.777002 0.281415 0.179143
0.811260 0.289230 0.178131
0.825447 0.283610 0.178860
0.839635 0.277990 0.179589
0.863343 0.277028 0.181552
0.887052 0.276066 0.183515
0.785003 0.914597 0.738370
0.644508 0.767588 0.472075
0.504014 0.620578 0.205779
0.394987 0.473404 0.134017
0.285961 0.326229 0.062255
0.363149 0.385349 0.230433
0.440336 0.444470 0.398612
0.537432 0.510175 0.428482
0.634527 0.575881 0.458352
0.585569 0.519335 0.423708
0.536610 0.462789 0.389063
0.528273 0.459568 0.409450
0.519937 0.456347 0.429837
0.577474 0.518587 0.490387
0.635010 0.580826 0.550937
0.615894 0.529528 0.488581
0.596778 0.478231 0.426225
0.609658 0.497117 0.440454
0.622539 0.516003 0.454684
0.673271 0.518073 0.466846
0.724004 0.520144 0.479008
0.757007 0.492975 0.438139
0.790010 0.465806 0.397270
0.776981 0.423840 0.352235
0.763952 0.381874 0.307201
0.770513 0.357883 0.267102
0.777074 0.333892 0.227003
0.802547 0.330810 0.216966
0.828019 0.327729 0.206929
0.839532 0.318442 0.202918
0.851046 0.309155 0.198907
0.873636 0.307099 0.198428
0.896226 0.305044 0.197949
0.611580 0.829195 0.579065
0.449424 0.656717 0.289532
0.287269 0.484240 0.000000
0.229755 0.369403 0.000000
0.172242 0.254566 0.000000
0.353485 0.394083 0.219464
0.534727 0.533601 0.438929
0.559998 0.555979 0.479581
0.585268 0.578357 0.520234
0.585561 0.541897 0.472027
0.585854 0.505437 0.423821
0.490382 0.401689 0.356132
0.394909 0.297941 0.288444
0.480151 0.409088 0.390060
0.565393 0.520234 0.491675
0.603848 0.545138 0.497489
0.642304 0.570042 0.503303
0.680707 0.622536 0.551708
0.719109 0.675030 0.600112
0.713157 0.627972 0.570599
0.707204 0.580914 0.541085
0.731929 0.539568 0.484613
0.756654 0.498221 0.428141
0.769082 0.467934 0.387891
0.781511 0.437648 0.347641
0.796457 0.415917 0.310746
0.811404 0.394185 0.273851
0.828091 0.380206 0.254789
0.844779 0.366227 0.235727
0.853617 0.353273 0.226976
0.862456 0.340319 0.218226
0.883929 0.337171 0.215305
0.905401 0.334022 0.212384
0.577226 0.796955 0.541112
0.538718 0.732864 0.405587
0.500210 0.668773 0.270062
0.428266 0.554543 0.217484
0.356323 0.440314 0.164906
0.403178 0.460114 0.192185
0.450033 0.479915 0.219464
0.494643 0.513895 0.326166
0.539253 0.547875 0.432867
0.548287 0.534796 0.422212
0.557322 0.521718 0.411557
0.496908 0.454945 0.371926
0.436494 0.388171 0.332294
0.551328 0.511470 0.457044
0.666162 0.634768 0.581794
0.663502 0.611985 0.554655
0.660842 0.589202 0.527516
0.693882 0.622040 0.556744
0.726921 0.654877 0.585972
0.737088 0.655831 0.612829
0.747255 0.656785 0.639686
0.748996 0.600382 0.562288
0.750738 0.543980 0.484890
0.768116 0.515608 0.441152
0.785494 0.487236 0.397414
0.800204 0.460859 0.354729
0.814913 0.434482 0.312044
0.827491 0.414115 0.286680
0.840068 0.393748 0.261316
0.851602 0.380124 0.248856
0.863136 0.366500 0.236395
0.888247 0.365201 0.233040
0.913359 0.363902 0.229686
0.542872 0.764715 0.503159
0.628011 0.809010 0.521641
0.713150 0.853305 0.540123
0.626777 0.739683 0.434967
0.540404 0.626062 0.329811
0.452872 0.526145 0.164906
0.365339 0.426228 0.000000
0.429288 0.471810 0.172750
0.493237 0.517392 0.345500
0.511014 0.527695 0.372397
0.528790 0.537998 0.399293
0.503434 0.508200 0.387719
0.478078 0.478402 0.376144
0.622505 0.613852 0.524029
0.766932 0.749301 0.671913
0.723156 0.678832 0.611821
0.679380 0.608362 0.551729
0.707057 0.621543 0.561780
0.734734 0.634724 0.571831
0.761020 0.683689 0.655059
0.787306 0.732655 0.738287
0.766064 0.661197 0.639963
0.744822 0.589739 0.541638
0.767149 0.563281 0.494413
0.789477 0.536823 0.447187
0.803950 0.505801 0.398712
0.818423 0.474779 0.350238
0.826890 0.448024 0.318572
0.835357 0.421269 0.286906
0.849587 0.406975 0.270735
0.863816 0.392680 0.254564
0.892567 0.393231 0.250776
0.921317 0.393782 0.246988
0.501374 0.697920 0.478848
0.575693 0.743312 0.514852
0.650012 0.788703 0.550856
0.676094 0.800324 0.607881
0.702176 0.811946 0.664906
0.587564 0.682951 0.413582
0.472953 0.553957 0.162258
0.476472 0.539346 0.180879
0.479992 0.524736 0.199501
0.513353 0.549340 0.300276
0.546714 0.573943 0.401052
0.516936 0.534113 0.375735
0.487158 0.494283 0.350417
0.601994 0.594975 0.492600
0.716830 0.695667 0.634782
0.662375 0.630950 0.582708
0.607921 0.566234 0.530633
0.648371 0.591703 0.543629
0.688822 0.617172 0.556625
0.717996 0.643659 0.598316
0.747170 0.670145 0.640008
0.724697 0.627487 0.586567
0.702223 0.584829 0.533125
0.743921 0.583022 0.518780
0.785618 0.581215 0.504435
0.803047 0.548345 0.445127
0.820475 0.515474 0.385818
0.833005 0.489972 0.352073
0.845534 0.464469 0.318328
0.862197 0.449736 0.299501
0.878860 0.435003 0.280674
0.907115 0.433411 0.274654
0.935370 0.431820 0.268635
0.459876 0.631126 0.454536
0.523375 0.677614 0.508062
0.586874 0.724101 0.561589
0.725411 0.860965 0.780794
0.863947 0.997830 1.000000
0.722257 0.839758 0.662258
0.580567 0.681686 0.324516
0.523657 0.606883 0.189009
0.466747 0.532080 0.053501
0.515693 0.570984 0.228156
0.564638 0.609889 0.402811
0.530438 0.560027 0.363751
0.496238 0.510164 0.324690
0.581483 0.576099 0.461171
0.666728 0.642033 0.597651
0.601595 0.583069 0.553594
0.536461 0.524105 0.509537
0.589686 0.561863 0.525478
0.642910 0.599621 0.541419
0.674972 0.603628 0.541574
0.707034 0.607635 0.541729
0.683329 0.593777 0.533171
0.659624 0.579919 0.524612
0.720692 0.602763 0.543148
0.781760 0.625607 0.561683
0.802144 0.590889 0.491541
0.822528 0.556170 0.421399
0.839119 0.531919 0.385575
0.855710 0.507668 0.349750
0.874807 0.492497 0.328268
0.893903 0.477325 0.306785
0.921663 0.473591 0.298533
0.949423 0.469857 0.290282
0.438655 0.561246 0.436343
0.481391 0.608786 0.465746
0.524127 0.656326 0.495149
0.615155 0.750011 0.626482
0.706184 0.843697 0.757814
0.663653 0.796865 0.593848
0.621122 0.750032 0.429881
0.557094 0.668738 0.281709
0.493066 0.587443 0.133536
0.526831 0.599312 0.227720
0.560596 0.611181 0.321903
0.539372 0.570019 0.285356
0.518148 0.528857 0.248808
0.581789 0.587957 0.379400
0.645429 0.647057 0.509992
0.605696 0.601303 0.508106
0.565964 0.555549 0.506219
0.605320 0.578222 0.511055
0.644676 0.600895 0.515891
0.676146 0.605016 0.515294
0.707617 0.609138 0.514698
0.700482 0.611051 0.537430
0.693348 0.612964 0.560163
0.731156 0.626560 0.559044
0.768963 0.640156 0.557924
0.797692 0.615605 0.498776
0.826421 0.591053 0.439627
0.846364 0.568203 0.404694
0.866308 0.545353 0.369760
0.887238 0.530988 0.348397
0.908168 0.516622 0.327034
0.935576 0.511970 0.318204
0.962984 0.507317 0.309374
0.417435 0.491365 0.418151
0.439407 0.539958 0.423430
0.461380 0.588551 0.428710
0.504900 0.639057 0.472169
0.548421 0.689564 0.515628
0.605049 0.753971 0.525437
0.661678 0.818379 0.535246
0.590532 0.730593 0.374408
0.519385 0.642806 0.213571
0.537969 0.627640 0.227283
0.556553 0.612475 0.240995
0.548306 0.580013 0.206961
0.540058 0.547550 0.172927
0.582094 0.599815 0.297630
0.624130 0.652080 0.422333
0.609798 0.619536 0.462617
0.595466 0.586992 0.502901
0.620954 0.594580 0.496632
0.646441 0.602169 0.490364
0.677320 0.606405 0.489015
0.708199 0.610641 0.487666
0.717636 0.628325 0.541690
0.727072 0.646008 0.595713
0.741619 0.650356 0.574940
0.756166 0.654705 0.554166
0.793240 0.640320 0.506010
0.830314 0.625936 0.457854
0.853610 0.604487 0.423812
0.876906 0.583038 0.389771
0.899669 0.569479 0.368527
0.922432 0.555920 0.347283
0.949488 0.550348 0.337874
0.976544 0.544776 0.328466
0.364062 0.480262 0.367013
0.392049 0.523727 0.375154
0.420036 0.567192 0.383294
0.469625 0.622618 0.425557
0.519214 0.678044 0.467820
0.576026 0.736704 0.493330
0.632838 0.795363 0.518841
0.613776 0.761305 0.463009
0.594715 0.727247 0.407177
0.580329 0.688781 0.308017
0.565942 0.650315 0.208857
0.588468 0.633236 0.228754
0.610993 0.616158 0.248651
0.632834 0.646985 0.300385
0.654674 0.677812 0.352119
0.631525 0.645298 0.412386
0.608375 0.612784 0.472653
0.631267 0.620071 0.484842
0.654158 0.627357 0.497031
0.711619 0.661159 0.539378
0.769080 0.694960 0.581724
0.793406 0.717186 0.626073
0.817732 0.739411 0.670423
0.802526 0.710454 0.619313
0.787320 0.681498 0.568202
0.815182 0.668060 0.525464
0.843044 0.654623 0.482725
0.866330 0.634325 0.441446
0.889616 0.614027 0.400166
0.911889 0.601476 0.379772
0.934162 0.588925 0.359378
0.960719 0.583588 0.351065
0.987276 0.578251 0.342752
0.310689 0.469159 0.315876
0.344691 0.507496 0.326878
0.378693 0.545833 0.337879
0.434350 0.606179 0.378945
0.490007 0.666525 0.420011
0.547002 0.719436 0.461224
0.603997 0.772347 0.502436
0.637021 0.792017 0.551610
0.670044 0.811687 0.600783
0.622688 0.749921 0.388751
0.575331 0.688155 0.176718
0.628630 0.686460 0.250546
0.681929 0.684765 0.324375
0.683573 0.694154 0.303140
0.685218 0.703544 0.281905
0.653251 0.671060 0.362155
0.621285 0.638577 0.442405
0.641580 0.645561 0.473052
0.661876 0.652545 0.503699
0.745919 0.715912 0.589741
0.829961 0.779279 0.675783
0.869176 0.806047 0.710457
0.908392 0.832814 0.745132
0.863433 0.770552 0.663685
0.818474 0.708290 0.582239
0.837123 0.695800 0.544918
0.855773 0.683310 0.507596
0.879050 0.664163 0.459079
0.902327 0.645016 0.410562
0.924109 0.633474 0.391017
0.945892 0.621931 0.371472
0.971949 0.616828 0.364255
0.998007 0.611725 0.357038
0.299656 0.546086 0.318167
0.339763 0.571423 0.332713
0.379871 0.596760 0.347258
0.428379 0.638734 0.375749
0.476888 0.680709 0.404240
0.524571 0.719580 0.432407
0.572254 0.758452 0.460574
0.607462 0.780045 0.493374
0.642669 0.801638 0.526173
0.635532 0.785332 0.421233
0.628395 0.769025 0.316294
0.654499 0.765990 0.363761
0.680604 0.762955 0.411229
0.690910 0.760791 0.397211
0.701216 0.758626 0.383193
0.677092 0.716304 0.438655
0.652968 0.673983 0.494117
0.671106 0.682383 0.509486
0.689245 0.690784 0.524855
0.753715 0.735419 0.586609
0.818185 0.780055 0.648362
0.862097 0.807209 0.689404
0.906010 0.834363 0.730446
0.879823 0.795077 0.683896
0.853637 0.755791 0.637345
0.864909 0.742682 0.598980
0.876181 0.729573 0.560615
0.901247 0.699536 0.472318
0.926312 0.669498 0.384022
0.942559 0.659666 0.376708
0.958806 0.649834 0.369395
0.978905 0.645887 0.368001
0.999003 0.641941 0.366607
0.288623 0.623013 0.320458
0.334836 0.635350 0.338548
0.381048 0.647687 0.356638
0.422408 0.671290 0.372554
0.463769 0.694893 0.388470
0.502140 0.719725 0.403591
0.540511 0.744557 0.418712
0.577903 0.768073 0.435138
0.615295 0.791590 0.451563
0.648377 0.820742 0.453716
0.681459 0.849895 0.455869
0.680369 0.845520 0.476976
0.679278 0.841146 0.498082
0.698246 0.827427 0.491281
0.717214 0.813708 0.484480
0.700933 0.761548 0.515154
0.684651 0.709389 0.545828
0.700632 0.719205 0.545920
0.716613 0.729022 0.546011
0.761511 0.754926 0.583477
0.806409 0.780830 0.620942
0.855018 0.808371 0.668351
0.903628 0.835912 0.715760
0.896214 0.819602 0.704106
0.888800 0.803292 0.692452
0.892695 0.789564 0.653042
0.896590 0.775836 0.613633
0.923444 0.734908 0.485557
0.950297 0.693980 0.357481
0.961009 0.685859 0.362400
0.971720 0.677737 0.367318
0.985860 0.674947 0.371747
1.000000 0.672156 0.376176
0.284208 0.674590 0.325726
0.327029 0.679379 0.339983
0.369849 0.684168 0.354240
0.408382 0.697291 0.364405
0.446916 0.710413 0.374570
0.481738 0.727685 0.384226
0.516561 0.744957 0.393882
0.550211 0.762775 0.405297
0.583861 0.780592 0.416712
0.611989 0.800300 0.420407
0.640117 0.820007 0.424101
0.643725 0.815239 0.441589
0.647333 0.810470 0.459077
0.658057 0.795353 0.470142
0.668781 0.780236 0.481207
0.680300 0.760260 0.517855
0.691819 0.740285 0.554504
0.711563 0.749740 0.558267
0.731308 0.759196 0.562031
0.771424 0.779628 0.593128
0.811541 0.800060 0.624224
0.862551 0.827158 0.670979
0.913561 0.854256 0.717733
0.908830 0.836924 0.706404
0.904099 0.819592 0.695074
0.914847 0.821940 0.684256
0.925594 0.824287 0.673437
0.944835 0.781970 0.543212
0.964077 0.739652 0.412987
0.971780 0.724919 0.400859
0.979482 0.710187 0.388730
0.989741 0.706026 0.388832
1.000000 0.701865 0.388934
0.279793 0.726167 0.330995
0.319222 0.723408 0.341419
0.358650 0.720649 0.351843
0.394356 0.723292 0.356257
0.430063 0.725934 0.360671
0.461337 0.735646 0.364862
0.492611 0.745358 0.369052
0.522519 0.757476 0.375457
0.552428 0.769594 0.381862
0.575601 0.779857 0.387098
0.598774 0.790120 0.392333
0.607080 0.784957 0.406203
0.615387 0.779795 0.420072
0.617868 0.763279 0.449003
0.620349 0.746764 0.477933
0.659668 0.758973 0.520556
0.698986 0.771182 0.563179
0.722494 0.780276 0.570615
0.746002 0.789370 0.578051
0.781338 0.804330 0.602779
0.816674 0.819290 0.627507
0.870085 0.845945 0.673607
0.923495 0.872600 0.719706
0.921447 0.854246 0.708701
0.919399 0.835893 0.697696
0.936998 0.854316 0.715469
0.954598 0.872739 0.733242
0.966227 0.829031 0.600867
0.977857 0.785324 0.468493
0.982551 0.763980 0.439318
0.987244 0.742637 0.410142
0.993622 0.737105 0.405917
1.000000 0.731574 0.401692
0.261851 0.712626 0.311248
0.293230 0.701110 0.315284
0.324608 0.689595 0.319319
0.364693 0.705596 0.327825
0.404778 0.721596 0.336332
0.436779 0.733379 0.341040
0.468780 0.745163 0.345748
0.498242 0.756248 0.352174
0.527704 0.767333 0.358599
0.551624 0.776348 0.365869
0.575543 0.785362 0.373139
0.589701 0.784105 0.388919
0.603859 0.782848 0.404700
0.616935 0.776237 0.436344
0.630012 0.769626 0.467988
0.668284 0.781113 0.517149
0.706556 0.792600 0.566311
0.735150 0.802084 0.594813
0.763745 0.811567 0.623314
0.787201 0.820322 0.625892
0.810657 0.829077 0.628469
0.850924 0.846770 0.651091
0.891190 0.864462 0.673714
0.898124 0.854165 0.665345
0.905057 0.843868 0.656977
0.925699 0.856774 0.668612
0.946340 0.869679 0.680248
0.957838 0.838467 0.586369
0.969335 0.807254 0.492490
0.979034 0.789032 0.460129
0.988733 0.770809 0.427768
0.994366 0.764914 0.418690
1.000000 0.759020 0.409612
0.243909 0.699084 0.291502
0.267237 0.678813 0.289149
0.290566 0.658542 0.286795
0.335030 0.687900 0.299394
0.379493 0.717258 0.311992
0.412221 0.731113 0.317218
0.444949 0.744968 0.322443
0.473965 0.755020 0.328890
0.502981 0.765072 0.335337
0.527647 0.772838 0.344640
0.552313 0.780604 0.353944
0.572322 0.783252 0.371636
0.592330 0.785901 0.389327
0.616003 0.789195 0.423685
0.639675 0.792489 0.458042
0.676900 0.803253 0.513742
0.714126 0.814018 0.569442
0.747807 0.823892 0.619010
0.781487 0.833765 0.668578
0.793064 0.836314 0.649004
0.804640 0.838864 0.629431
0.831763 0.847595 0.628576
0.858885 0.856325 0.627721
0.874801 0.854084 0.621990
0.890716 0.851844 0.616258
0.914399 0.859231 0.621756
0.938083 0.866619 0.627253
0.949448 0.847902 0.571870
0.960814 0.829185 0.516487
0.975518 0.814083 0.480941
0.990221 0.798981 0.445394
0.995111 0.792723 0.431464
1.000000 0.786465 0.417533
0.232877 0.715207 0.276544
0.259257 0.703527 0.275929
0.285638 0.691847 0.275314
0.324819 0.712069 0.284442
0.364000 0.732291 0.293570
0.395639 0.743836 0.298624
0.427278 0.755381 0.303678
0.455987 0.764352 0.310403
0.484696 0.773323 0.317129
0.510141 0.780584 0.327283
0.535585 0.787845 0.337437
0.558081 0.791691 0.355737
0.580576 0.795538 0.374036
0.606571 0.800033 0.408305
0.632565 0.804528 0.442574
0.670248 0.814332 0.501724
0.707931 0.824135 0.560874
0.744002 0.833630 0.619445
0.780073 0.843125 0.678016
0.787221 0.844619 0.646513
0.794369 0.846112 0.615010
0.817715 0.852913 0.603697
0.841061 0.859715 0.592383
0.859617 0.859741 0.584463
0.878174 0.859768 0.576542
0.901590 0.864500 0.576431
0.925006 0.869232 0.576320
0.940108 0.856519 0.536231
0.955209 0.843805 0.496143
0.972893 0.832451 0.467388
0.990577 0.821096 0.438633
0.995288 0.815912 0.426071
1.000000 0.810728 0.413510
0.221845 0.731330 0.261585
0.251277 0.728241 0.262710
0.280710 0.725152 0.263834
0.314609 0.736239 0.269490
0.348508 0.747325 0.275147
0.379057 0.756559 0.280029
0.409606 0.765794 0.284912
0.438009 0.773684 0.291916
0.466411 0.781574 0.298921
0.492635 0.788330 0.309925
0.518858 0.795086 0.320929
0.543840 0.800130 0.339837
0.568823 0.805175 0.358746
0.597139 0.810871 0.392926
0.625455 0.816568 0.427106
0.663596 0.825410 0.489705
0.701737 0.834253 0.552305
0.740198 0.843369 0.619879
0.778659 0.852485 0.687453
0.781378 0.852923 0.644022
0.784097 0.853360 0.600590
0.803666 0.858232 0.578818
0.823236 0.863105 0.557046
0.844434 0.865398 0.546936
0.865633 0.867692 0.536825
0.888781 0.869769 0.531106
0.911930 0.871845 0.525387
0.930768 0.865135 0.500593
0.949605 0.858426 0.475798
0.970268 0.850819 0.453835
0.990932 0.843211 0.431871
0.995466 0.839101 0.420679
1.000000 0.834992 0.409487
0.212315 0.756567 0.249075
0.242218 0.755250 0.250352
0.272121 0.753933 0.251629
0.304413 0.761899 0.256180
0.336705 0.769864 0.260731
0.366592 0.777243 0.265401
0.396479 0.784621 0.270072
0.424641 0.791346 0.276924
0.452804 0.798070 0.283775
0.479265 0.804093 0.294369
0.505727 0.810116 0.304964
0.531250 0.815004 0.322231
0.556772 0.819893 0.339498
0.584436 0.825114 0.368412
0.612100 0.830334 0.397325
0.645666 0.837394 0.444796
0.679233 0.844454 0.492267
0.712136 0.851628 0.540237
0.745039 0.858801 0.588207
0.756102 0.861056 0.565132
0.767166 0.863311 0.542057
0.788263 0.868182 0.527281
0.809360 0.873053 0.512506
0.832007 0.876042 0.504582
0.854655 0.879031 0.496658
0.878573 0.881090 0.491100
0.902491 0.883148 0.485543
0.923641 0.878902 0.467309
0.944790 0.874656 0.449075
0.967377 0.869287 0.432242
0.989963 0.863919 0.415408
0.994982 0.860853 0.406452
1.000000 0.857788 0.397497
0.202786 0.781804 0.236565
0.233159 0.782259 0.237995
0.263533 0.782714 0.239424
0.294217 0.787559 0.242869
0.324902 0.792404 0.246314
0.354126 0.797926 0.250774
0.383351 0.803448 0.255233
0.411274 0.809007 0.261931
0.439197 0.814566 0.268629
0.465896 0.819856 0.278814
0.492596 0.825145 0.288998
0.518659 0.829878 0.304625
0.544722 0.834611 0.320251
0.571733 0.839356 0.343898
0.598744 0.844101 0.367544
0.627737 0.849378 0.399886
0.656730 0.854655 0.432228
0.684075 0.859886 0.460595
0.711420 0.865117 0.488962
0.730827 0.869189 0.486242
0.750234 0.873262 0.483523
0.772859 0.878132 0.475745
0.795483 0.883002 0.467967
0.819580 0.886686 0.462229
0.843677 0.890370 0.456490
0.868364 0.892411 0.451094
0.893051 0.894451 0.445698
0.916514 0.892668 0.434025
0.939976 0.890886 0.422352
0.964485 0.887756 0.410649
0.988995 0.884627 0.398945
0.994497 0.882605 0.392226
1.000000 0.880584 0.385506
0.194646 0.810035 0.226564
0.225017 0.810665 0.227905
0.255389 0.811295 0.229246
0.285577 0.814958 0.232285
0.315765 0.818621 0.235324
0.344699 0.823035 0.239534
0.373632 0.827450 0.243745
0.401418 0.832099 0.250032
0.429204 0.836748 0.256319
0.455932 0.841344 0.265632
0.482660 0.845941 0.274945
0.508766 0.850240 0.288629
0.534871 0.854540 0.302312
0.561391 0.858835 0.321868
0.587911 0.863130 0.341423
0.615452 0.867740 0.366577
0.642992 0.872350 0.391731
0.669299 0.877015 0.413452
0.695607 0.881680 0.435173
0.717162 0.885860 0.436317
0.738718 0.890039 0.437461
0.762380 0.894729 0.433560
0.786043 0.899419 0.429659
0.810916 0.903175 0.426105
0.835789 0.906932 0.422550
0.861187 0.909197 0.418609
0.886585 0.911463 0.414669
0.911348 0.910812 0.406323
0.936111 0.910162 0.397978
0.961823 0.908267 0.389413
0.987535 0.906371 0.380847
0.993767 0.905045 0.375816
1.000000 0.903718 0.370784
0.186506 0.838266 0.216563
0.216875 0.839071 0.217815
0.247244 0.839877 0.219067
0.276936 0.842358 0.221700
0.306629 0.844839 0.224333
0.335271 0.848145 0.228295
0.363914 0.851451 0.232256
0.391563 0.855190 0.238132
0.419212 0.858930 0.244008
0.445968 0.862833 0.252450
0.472725 0.866736 0.260893
0.498872 0.870602 0.272633
0.525019 0.874468 0.284373
0.551049 0.878314 0.299838
0.577079 0.882160 0.315302
0.603166 0.886102 0.333268
0.629254 0.890045 0.351233
0.654524 0.894143 0.366309
0.679793 0.898242 0.381384
0.703498 0.902530 0.386392
0.727202 0.906817 0.391399
0.751902 0.911326 0.391375
0.776602 0.915835 0.391351
0.802251 0.919665 0.389980
0.827901 0.923494 0.388610
0.854010 0.925984 0.386125
0.880119 0.928474 0.383639
